( pcb2gcode 1.3.2 )
( Software-independent Gcode )

G94 ( Millimeters per minute feed rate. )
G21 ( Units == Millimeters. )

G90 ( Absolute coordinates. )
G00 S255 ( RPM spindle speed. )
G01 F120.00000 ( Feedrate. )

G01 F120.00000 ( Feedrate. )
M3 ( Spindle on clockwise. )
G04 P1.00000
G04 P0 ( dwell for no time -- G64 should not smooth over this point )
G00 Z5.00000 ( retract )

G00 X-5.31929 Y41.03963 ( rapid move to begin. )
G01 F60.00000
G01 Z-0.05000
G04 P0 ( dwell for no time -- G64 should not smooth over this point )
G01 F120.00000
G01 X-5.31929 Y41.03963
G01 X-5.33720 Y40.80788
G01 X-5.38033 Y40.64139
G01 X-5.50923 Y40.37855
G01 X-5.65632 Y40.19859
G01 X-5.83664 Y40.05188
G01 X-5.98701 Y39.96841
G01 X-6.20692 Y39.89300
G01 X-6.43740 Y39.86336
G01 X-6.56900 Y39.86658
G01 X-6.78261 Y39.90695
G01 X-6.99859 Y39.99292
G01 X-7.23887 Y40.16018
G01 X-7.35736 Y40.28485
G01 X-7.48548 Y40.47878
G01 X-7.57197 Y40.69462
G01 X-7.61629 Y40.98398
G01 X-7.60758 Y41.15571
G01 X-7.56780 Y41.33387
G01 X-7.56778 Y44.36617
G01 X-8.03267 Y44.83107
G01 X-8.13948 Y44.85542
G01 X-8.38779 Y44.96599
G01 X-8.62985 Y45.14793
G01 X-8.76973 Y45.30328
G01 X-8.91113 Y45.53505
G01 X-9.01428 Y45.85253
G01 X-9.03780 Y46.09179
G01 X-9.01428 Y46.33109
G01 X-8.92538 Y46.62057
G01 X-8.80658 Y46.82961
G01 X-8.62985 Y47.03568
G01 X-8.35980 Y47.23187
G01 X-8.10915 Y47.33629
G01 X-7.90468 Y47.37975
G01 X-7.63328 Y47.38631
G01 X-7.36643 Y47.33629
G01 X-7.06145 Y47.20050
G01 X-6.84573 Y47.03568
G01 X-6.70585 Y46.88034
G01 X-6.55020 Y46.62057
G01 X-6.47210 Y46.38179
G01 X-5.67014 Y45.57780
G01 X-5.57068 Y45.45657
G01 X-5.46410 Y45.26937
G01 X-5.39608 Y45.06497
G01 X-5.36781 Y44.82179
G01 X-5.36781 Y41.34027
G01 X-5.31929 Y41.03963
G04 P0 ( dwell for no time -- G64 should not smooth over this point )
G00 Z5.00000 ( retract )

G00 X-11.29642 Y42.28182 ( rapid move to begin. )
G01 F60.00000
G01 Z-0.05000
G04 P0 ( dwell for no time -- G64 should not smooth over this point )
G01 F120.00000
G01 X-11.29642 Y42.28182
G01 X-11.79916 Y42.28179
G01 X-11.94948 Y42.24816
G01 X-12.22410 Y42.12053
G01 X-12.43985 Y41.95568
G01 X-12.57973 Y41.80034
G01 X-12.72113 Y41.56856
G01 X-12.81125 Y41.31240
G01 X-12.81780 Y40.74202
G01 X-12.73538 Y40.48304
G01 X-12.64778 Y40.32805
G01 X-12.64780 Y39.74179
G01 X-12.63094 Y39.55630
G01 X-12.57396 Y39.34860
G01 X-12.47752 Y39.15594
G01 X-12.32560 Y38.96400
G01 X-10.59342 Y37.23179
G01 X-12.54780 Y37.23179
G01 X-12.66258 Y37.20896
G01 X-12.75992 Y37.14393
G01 X-12.82494 Y37.04660
G01 X-12.84780 Y36.93179
G01 X-12.84780 Y36.30456
G01 X-12.81854 Y35.96014
G01 X-12.84780 Y35.55905
G01 X-12.84780 Y34.93180
G01 X-12.82494 Y34.81701
G01 X-12.75992 Y34.71968
G01 X-12.66258 Y34.65466
G01 X-12.54780 Y34.63180
G01 X-10.54781 Y34.63180
G01 X-10.43300 Y34.65466
G01 X-10.33566 Y34.71968
G01 X-10.27064 Y34.81701
G01 X-10.24781 Y34.93180
G01 X-10.24778 Y36.88617
G01 X-10.31514 Y37.02392
G01 X-10.37813 Y37.10146
G01 X-10.45568 Y37.16446
G01 X-10.59342 Y37.23179
G04 P0 ( dwell for no time -- G64 should not smooth over this point )
G00 Z5.00000 ( retract )

G00 X-12.84780 Y36.30456 ( rapid move to begin. )
G01 F60.00000
G01 Z-0.05000
G04 P0 ( dwell for no time -- G64 should not smooth over this point )
G01 F120.00000
G01 X-12.84780 Y36.30456
G01 X-12.90020 Y36.46057
G01 X-13.01900 Y36.66961
G01 X-13.19573 Y36.87568
G01 X-13.43779 Y37.05762
G01 X-13.71643 Y37.17629
G01 X-13.92090 Y37.21975
G01 X-14.19232 Y37.22631
G01 X-14.48948 Y37.16816
G01 X-14.77609 Y37.03182
G01 X-15.52781 Y37.03179
G01 X-15.52781 Y42.86805
G01 X-15.44020 Y43.02304
G01 X-15.35130 Y43.31253
G01 X-15.32781 Y43.55179
G01 X-15.36433 Y43.85240
G01 X-15.44020 Y44.08057
G01 X-15.59585 Y44.34034
G01 X-15.78234 Y44.53762
G01 X-16.00578 Y44.69187
G01 X-16.25643 Y44.79629
G01 X-16.52328 Y44.84631
G01 X-16.79468 Y44.83975
G01 X-16.99915 Y44.79629
G01 X-17.24980 Y44.69187
G01 X-17.51985 Y44.49568
G01 X-17.69658 Y44.28961
G01 X-17.81538 Y44.08057
G01 X-17.89125 Y43.85240
G01 X-17.92780 Y43.55179
G01 X-17.89125 Y43.25121
G01 X-17.81538 Y43.02304
G01 X-17.72778 Y42.86805
G01 X-17.72780 Y35.93179
G01 X-17.69948 Y35.68867
G01 X-17.63146 Y35.48427
G01 X-17.52488 Y35.29707
G01 X-17.38376 Y35.13418
G01 X-17.26252 Y35.03472
G01 X-17.07533 Y34.92814
G01 X-16.87093 Y34.86012
G01 X-16.62780 Y34.83180
G01 X-14.77612 Y34.83180
G01 X-14.45915 Y34.68732
G01 X-14.19232 Y34.63728
G01 X-13.98328 Y34.63728
G01 X-13.65677 Y34.70670
G01 X-13.41148 Y34.82308
G01 X-13.24234 Y34.94597
G01 X-13.01900 Y35.19400
G01 X-12.90020 Y35.40304
G01 X-12.84780 Y35.55905
G04 P0 ( dwell for no time -- G64 should not smooth over this point )
G00 Z5.00000 ( retract )

G00 X-10.24778 Y36.88617 ( rapid move to begin. )
G01 F60.00000
G01 Z-0.05000
G04 P0 ( dwell for no time -- G64 should not smooth over this point )
G01 F120.00000
G01 X-10.24778 Y36.88617
G01 X-8.49376 Y35.13418
G01 X-8.37252 Y35.03472
G01 X-8.18533 Y34.92814
G01 X-7.98093 Y34.86012
G01 X-7.73780 Y34.83180
G01 X-6.79810 Y34.83182
G01 X-6.61416 Y34.79233
G01 X-6.48302 Y34.78222
G01 X-6.26630 Y34.80078
G01 X-6.04284 Y34.86446
G01 X-5.83664 Y34.97188
G01 X-5.61452 Y35.16256
G01 X-5.47710 Y35.35011
G01 X-5.40138 Y35.50452
G01 X-5.33720 Y35.72788
G01 X-5.32236 Y36.02029
G01 X-5.36361 Y36.24899
G01 X-5.45010 Y36.46484
G01 X-5.57822 Y36.65877
G01 X-5.69671 Y36.78343
G01 X-5.93699 Y36.95069
G01 X-6.09506 Y37.01851
G01 X-6.32142 Y37.07129
G01 X-6.49818 Y37.08026
G01 X-6.66928 Y37.06283
G01 X-6.78863 Y37.03179
G01 X-7.28215 Y37.03179
G01 X-10.44781 Y40.19745
G01 X-10.44781 Y40.32805
G01 X-10.36020 Y40.48304
G01 X-10.28433 Y40.71121
G01 X-10.24943 Y40.98043
G01 X-10.27130 Y41.25109
G01 X-10.36020 Y41.54057
G01 X-10.51585 Y41.80034
G01 X-10.70234 Y41.99762
G01 X-10.92578 Y42.15187
G01 X-11.11679 Y42.23691
G01 X-11.29642 Y42.28182
G01 X-11.14610 Y42.31545
G01 X-10.92578 Y42.41174
G01 X-10.65573 Y42.60793
G01 X-10.51585 Y42.76328
G01 X-10.37445 Y42.99505
G01 X-10.27130 Y43.31253
G01 X-10.24781 Y43.55179
G01 X-10.27130 Y43.79109
G01 X-10.36020 Y44.08057
G01 X-10.44781 Y44.23556
G01 X-10.44781 Y47.53180
G01 X-3.75780 Y47.53180
G01 X-3.75780 Y39.57179
G01 X-6.13748 Y39.57182
G01 X-6.32142 Y39.61129
G01 X-6.45256 Y39.62140
G01 X-6.72866 Y39.59061
G01 X-6.94857 Y39.51520
G01 X-7.09894 Y39.43174
G01 X-7.27926 Y39.28503
G01 X-7.42635 Y39.10507
G01 X-7.55525 Y38.84223
G01 X-7.59838 Y38.67573
G01 X-7.61629 Y38.44398
G01 X-7.58716 Y38.21332
G01 X-7.51225 Y37.99333
G01 X-7.35736 Y37.74485
G01 X-7.23887 Y37.62018
G01 X-7.05167 Y37.48241
G01 X-6.78261 Y37.36695
G01 X-6.48302 Y37.32222
G01 X-6.26630 Y37.34078
G01 X-6.14695 Y37.37180
G01 X-3.75780 Y37.37180
G01 X-3.75780 Y22.41747
G01 X-8.19343 Y17.98182
G01 X-12.98781 Y17.98182
G01 X-12.98781 Y22.54805
G01 X-12.88892 Y22.73238
G01 X-12.84778 Y22.85905
G01 X-12.82949 Y22.99443
G01 X-12.81854 Y23.26014
G01 X-12.84778 Y23.60454
G01 X-12.84780 Y24.23179
G01 X-12.82494 Y24.34660
G01 X-12.79723 Y24.39847
G01 X-12.71445 Y24.48125
G01 X-12.60632 Y24.52605
G01 X-12.54780 Y24.53179
G01 X-10.54781 Y24.53179
G01 X-10.48926 Y24.52605
G01 X-10.38113 Y24.48125
G01 X-10.29835 Y24.39847
G01 X-10.25355 Y24.29034
G01 X-10.24781 Y24.23179
G01 X-10.24781 Y22.23180
G01 X-10.25355 Y22.17327
G01 X-10.29835 Y22.06515
G01 X-10.38113 Y21.98237
G01 X-10.48926 Y21.93756
G01 X-10.54781 Y21.93180
G01 X-12.54780 Y21.93180
G01 X-12.66258 Y21.95466
G01 X-12.75992 Y22.01968
G01 X-12.79723 Y22.06515
G01 X-12.84203 Y22.17327
G01 X-12.84778 Y22.85905
G04 P0 ( dwell for no time -- G64 should not smooth over this point )
G00 Z5.00000 ( retract )

G00 X-12.84778 Y23.60454 ( rapid move to begin. )
G01 F60.00000
G01 Z-0.05000
G04 P0 ( dwell for no time -- G64 should not smooth over this point )
G01 F120.00000
G01 X-12.84778 Y23.60454
G01 X-12.90020 Y23.76057
G01 X-13.01900 Y23.96961
G01 X-13.24234 Y24.21762
G01 X-13.43779 Y24.35762
G01 X-13.65679 Y24.45691
G01 X-13.98328 Y24.52631
G01 X-14.25468 Y24.51975
G01 X-14.45915 Y24.47629
G01 X-14.76410 Y24.34053
G01 X-14.97985 Y24.17568
G01 X-15.11973 Y24.02034
G01 X-15.27538 Y23.76057
G01 X-15.35125 Y23.53240
G01 X-15.38780 Y23.23179
G01 X-15.35125 Y22.93121
G01 X-15.27538 Y22.70304
G01 X-15.18778 Y22.54805
G01 X-15.18780 Y17.98179
G01 X-23.55946 Y17.98179
G01 X-23.87643 Y18.12629
G01 X-24.14328 Y18.17631
G01 X-24.41468 Y18.16975
G01 X-24.67882 Y18.10691
G01 X-24.92410 Y17.99053
G01 X-25.09324 Y17.86764
G01 X-25.27973 Y17.67034
G01 X-25.43538 Y17.41057
G01 X-25.52428 Y17.12109
G01 X-25.54615 Y16.85043
G01 X-25.51125 Y16.58121
G01 X-25.44666 Y16.38238
G01 X-25.31658 Y16.14400
G01 X-25.13985 Y15.93793
G01 X-24.89779 Y15.75599
G01 X-24.61915 Y15.63732
G01 X-24.35232 Y15.58728
G01 X-24.14328 Y15.58728
G01 X-23.87643 Y15.63732
G01 X-23.55949 Y15.78180
G01 X-7.73780 Y15.78180
G01 X-7.49462 Y15.81012
G01 X-7.29023 Y15.87814
G01 X-7.15190 Y15.95208
G01 X-6.95995 Y16.10400
G01 X-1.87995 Y21.18400
G01 X-1.76068 Y21.32707
G01 X-1.65410 Y21.51427
G01 X-1.58608 Y21.71867
G01 X-1.55781 Y21.96179
G01 X-1.55781 Y48.63179
G01 X-1.57459 Y48.81729
G01 X-1.63159 Y49.02504
G01 X-1.76068 Y49.26657
G01 X-1.90180 Y49.42946
G01 X-2.02303 Y49.52892
G01 X-2.21023 Y49.63550
G01 X-2.41462 Y49.70352
G01 X-2.65780 Y49.73179
G01 X-11.54780 Y49.73179
G01 X-11.73325 Y49.71500
G01 X-11.94100 Y49.65801
G01 X-12.18252 Y49.52892
G01 X-12.34541 Y49.38780
G01 X-12.47752 Y49.21770
G01 X-12.57396 Y49.02504
G01 X-12.63094 Y48.81734
G01 X-12.64780 Y48.63179
G01 X-12.64778 Y44.23556
G01 X-12.73538 Y44.08057
G01 X-12.81125 Y43.85240
G01 X-12.84615 Y43.52043
G01 X-12.81125 Y43.25121
G01 X-12.74666 Y43.05238
G01 X-12.57973 Y42.76328
G01 X-12.39324 Y42.56600
G01 X-12.19779 Y42.42599
G01 X-11.97879 Y42.32670
G01 X-11.79916 Y42.28179
G04 P0 ( dwell for no time -- G64 should not smooth over this point )
G00 Z5.00000 ( retract )

G00 X-12.81780 Y41.28159 ( rapid move to begin. )
G01 F60.00000
G01 Z-0.05000
G04 P0 ( dwell for no time -- G64 should not smooth over this point )
G01 F120.00000
G01 X-12.81780 Y41.28159
G01 X-12.90020 Y41.54057
G01 X-12.98781 Y41.69556
G01 X-12.98781 Y46.09179
G01 X-13.01608 Y46.33497
G01 X-13.08410 Y46.53937
G01 X-13.15804 Y46.67770
G01 X-13.33180 Y46.88946
G01 X-13.50190 Y47.02156
G01 X-13.69456 Y47.11801
G01 X-13.90231 Y47.17500
G01 X-14.05839 Y47.19037
G01 X-24.24780 Y47.19179
G01 X-24.49093 Y47.16352
G01 X-24.69533 Y47.09550
G01 X-24.88252 Y46.98892
G01 X-25.00376 Y46.88946
G01 X-25.17752 Y46.67770
G01 X-25.25146 Y46.53937
G01 X-25.31948 Y46.33497
G01 X-25.34780 Y46.09179
G01 X-25.34780 Y43.38179
G01 X-30.85221 Y43.38182
G01 X-30.95927 Y43.42604
G01 X-31.01782 Y43.43178
G01 X-32.71779 Y43.43178
G01 X-32.83257 Y43.40894
G01 X-32.92990 Y43.34392
G01 X-32.99493 Y43.24659
G01 X-33.01779 Y43.13178
G01 X-33.01202 Y41.37329
G01 X-32.96722 Y41.26516
G01 X-32.92990 Y41.21969
G01 X-32.88444 Y41.18238
G01 X-32.77631 Y41.13758
G01 X-31.01782 Y41.13181
G01 X-30.95927 Y41.13758
G01 X-30.85221 Y41.18180
G01 X-24.24780 Y41.18180
G01 X-24.06226 Y41.19866
G01 X-23.80023 Y41.27814
G01 X-23.61303 Y41.38472
G01 X-23.49180 Y41.48418
G01 X-23.31804 Y41.69594
G01 X-23.24410 Y41.83427
G01 X-23.17608 Y42.03867
G01 X-23.14781 Y42.28179
G01 X-23.14781 Y44.99180
G01 X-15.18780 Y44.99180
G01 X-15.18778 Y41.69556
G01 X-15.27538 Y41.54057
G01 X-15.35125 Y41.31240
G01 X-15.38780 Y41.01179
G01 X-15.35125 Y40.71121
G01 X-15.26113 Y40.45505
G01 X-15.11973 Y40.22328
G01 X-14.97985 Y40.06793
G01 X-14.73779 Y39.88599
G01 X-14.51879 Y39.78670
G01 X-14.25468 Y39.72386
G01 X-13.92090 Y39.72386
G01 X-13.68610 Y39.77545
G01 X-13.46578 Y39.87174
G01 X-13.19573 Y40.06793
G01 X-13.05585 Y40.22328
G01 X-12.91445 Y40.45505
G01 X-12.81780 Y40.74202
G04 P0 ( dwell for no time -- G64 should not smooth over this point )
G00 Z5.00000 ( retract )

G00 X-5.31929 Y33.41963 ( rapid move to begin. )
G01 F60.00000
G01 Z-0.05000
G04 P0 ( dwell for no time -- G64 should not smooth over this point )
G01 F120.00000
G01 X-5.31929 Y33.41963
G01 X-5.34843 Y33.65029
G01 X-5.42333 Y33.87028
G01 X-5.57822 Y34.11877
G01 X-5.74276 Y34.28295
G01 X-5.93699 Y34.41069
G01 X-6.15297 Y34.49667
G01 X-6.36658 Y34.53703
G01 X-6.66928 Y34.52283
G01 X-6.78863 Y34.49179
G01 X-20.60781 Y34.49179
G01 X-20.60778 Y35.24805
G01 X-20.52020 Y35.40304
G01 X-20.44433 Y35.63121
G01 X-20.40781 Y35.93179
G01 X-20.44433 Y36.23240
G01 X-20.52020 Y36.46057
G01 X-20.60778 Y36.61556
G01 X-20.60778 Y40.32805
G01 X-20.52020 Y40.48304
G01 X-20.43130 Y40.77253
G01 X-20.40781 Y41.01179
G01 X-20.44433 Y41.31240
G01 X-20.52020 Y41.54057
G01 X-20.63900 Y41.74961
G01 X-20.86234 Y41.99762
G01 X-21.05779 Y42.13762
G01 X-21.27679 Y42.23691
G01 X-21.60328 Y42.30631
G01 X-21.87468 Y42.29975
G01 X-22.07915 Y42.25629
G01 X-22.38410 Y42.12053
G01 X-22.59985 Y41.95568
G01 X-22.73973 Y41.80034
G01 X-22.89538 Y41.54057
G01 X-22.97125 Y41.31240
G01 X-23.00780 Y41.01179
G01 X-22.97125 Y40.71121
G01 X-22.89538 Y40.48304
G01 X-22.80780 Y40.32805
G01 X-22.80780 Y36.61556
G01 X-22.89538 Y36.46057
G01 X-22.97125 Y36.23240
G01 X-23.00780 Y35.93179
G01 X-22.97125 Y35.63121
G01 X-22.89538 Y35.40304
G01 X-22.80780 Y35.24805
G01 X-22.80633 Y33.36236
G01 X-22.77948 Y33.14867
G01 X-22.73396 Y32.99860
G01 X-22.60488 Y32.75707
G01 X-22.46376 Y32.59418
G01 X-22.34252 Y32.49472
G01 X-22.15533 Y32.38814
G01 X-21.95093 Y32.32012
G01 X-21.70780 Y32.29180
G01 X-6.79810 Y32.29180
G01 X-6.61416 Y32.25233
G01 X-6.43740 Y32.24336
G01 X-6.20692 Y32.27300
G01 X-5.98701 Y32.34841
G01 X-5.78683 Y32.46655
G01 X-5.61452 Y32.62256
G01 X-5.50923 Y32.75855
G01 X-5.40138 Y32.96452
G01 X-5.33720 Y33.18788
G01 X-5.31929 Y33.41963
G04 P0 ( dwell for no time -- G64 should not smooth over this point )
G00 Z5.00000 ( retract )

G00 X-6.79810 Y29.75180 ( rapid move to begin. )
G01 F60.00000
G01 Z-0.05000
G04 P0 ( dwell for no time -- G64 should not smooth over this point )
G01 F120.00000
G01 X-6.79810 Y29.75180
G01 X-6.61416 Y29.71233
G01 X-6.43740 Y29.70336
G01 X-6.20692 Y29.73300
G01 X-5.98701 Y29.80841
G01 X-5.78683 Y29.92655
G01 X-5.61452 Y30.08256
G01 X-5.47710 Y30.27011
G01 X-5.38033 Y30.48139
G01 X-5.32800 Y30.70790
G01 X-5.32236 Y30.94029
G01 X-5.36361 Y31.16899
G01 X-5.45010 Y31.38484
G01 X-5.57822 Y31.57877
G01 X-5.74276 Y31.74295
G01 X-5.93699 Y31.87069
G01 X-6.15297 Y31.95667
G01 X-6.45256 Y32.00140
G01 X-6.66928 Y31.98283
G01 X-6.78863 Y31.95179
G01 X-21.70780 Y31.95179
G01 X-21.95093 Y31.92352
G01 X-22.15533 Y31.85550
G01 X-22.34252 Y31.74892
G01 X-22.46376 Y31.64946
G01 X-22.60488 Y31.48657
G01 X-22.73396 Y31.24504
G01 X-22.77948 Y31.09497
G01 X-22.80633 Y30.88126
G01 X-22.80780 Y28.99556
G01 X-22.89538 Y28.84057
G01 X-22.97125 Y28.61240
G01 X-23.00780 Y28.31179
G01 X-22.97125 Y28.01121
G01 X-22.89538 Y27.78304
G01 X-22.80780 Y27.62805
G01 X-22.80780 Y23.91556
G01 X-22.89538 Y23.76057
G01 X-22.97125 Y23.53240
G01 X-23.00780 Y23.23179
G01 X-22.97125 Y22.93121
G01 X-22.89538 Y22.70304
G01 X-22.73973 Y22.44328
G01 X-22.55324 Y22.24600
G01 X-22.35779 Y22.10599
G01 X-22.07915 Y21.98732
G01 X-21.81232 Y21.93728
G01 X-21.60328 Y21.93728
G01 X-21.27677 Y22.00670
G01 X-21.03148 Y22.12308
G01 X-20.86234 Y22.24597
G01 X-20.63900 Y22.49400
G01 X-20.52020 Y22.70304
G01 X-20.44433 Y22.93121
G01 X-20.40781 Y23.23179
G01 X-20.43130 Y23.47109
G01 X-20.52020 Y23.76057
G01 X-20.60778 Y23.91556
G01 X-20.60778 Y27.62805
G01 X-20.52020 Y27.78304
G01 X-20.44433 Y28.01121
G01 X-20.40781 Y28.31179
G01 X-20.44433 Y28.61240
G01 X-20.52020 Y28.84057
G01 X-20.60778 Y28.99556
G01 X-20.60781 Y29.75180
G01 X-6.79810 Y29.75180
G01 X-7.31779 Y29.46178
G01 X-5.61782 Y29.46178
G01 X-5.55927 Y29.45604
G01 X-5.45114 Y29.41123
G01 X-5.36836 Y29.32845
G01 X-5.32356 Y29.22033
G01 X-5.31782 Y29.16178
G01 X-5.31782 Y27.46181
G01 X-5.34065 Y27.34703
G01 X-5.40568 Y27.24969
G01 X-5.50301 Y27.18467
G01 X-5.61782 Y27.16181
G01 X-7.31779 Y27.16181
G01 X-7.37631 Y27.16758
G01 X-7.48337 Y27.21182
G01 X-10.85949 Y27.21180
G01 X-11.17643 Y27.06732
G01 X-11.44328 Y27.01728
G01 X-11.65232 Y27.01728
G01 X-11.97879 Y27.08670
G01 X-12.19779 Y27.18599
G01 X-12.39324 Y27.32600
G01 X-12.61658 Y27.57400
G01 X-12.73538 Y27.78304
G01 X-12.81125 Y28.01121
G01 X-12.81778 Y28.58159
G01 X-12.72113 Y28.86856
G01 X-12.57973 Y29.10034
G01 X-12.39324 Y29.29764
G01 X-12.16980 Y29.45187
G01 X-11.91915 Y29.55629
G01 X-11.65232 Y29.60631
G01 X-11.38090 Y29.59975
G01 X-11.11679 Y29.53691
G01 X-10.85946 Y29.41182
G01 X-7.48337 Y29.41179
G01 X-7.37631 Y29.45604
G01 X-7.31779 Y29.46178
G04 P0 ( dwell for no time -- G64 should not smooth over this point )
G00 Z5.00000 ( retract )

G00 X-12.81778 Y28.58159 ( rapid move to begin. )
G01 F60.00000
G01 Z-0.05000
G04 P0 ( dwell for no time -- G64 should not smooth over this point )
G01 F120.00000
G01 X-12.81778 Y28.58159
G01 X-12.91445 Y28.86856
G01 X-13.05585 Y29.10034
G01 X-13.19573 Y29.25568
G01 X-13.46578 Y29.45187
G01 X-13.71643 Y29.55629
G01 X-13.92090 Y29.59975
G01 X-14.19232 Y29.60631
G01 X-14.45915 Y29.55629
G01 X-14.77609 Y29.41182
G01 X-17.92719 Y29.41037
G01 X-18.08325 Y29.39500
G01 X-18.29100 Y29.33801
G01 X-18.48365 Y29.24156
G01 X-18.65376 Y29.10946
G01 X-18.82752 Y28.89770
G01 X-18.92396 Y28.70504
G01 X-18.96948 Y28.55497
G01 X-18.99633 Y28.34126
G01 X-18.99780 Y21.79179
G01 X-23.14781 Y21.79179
G01 X-23.14781 Y32.12179
G01 X-23.16459 Y32.30729
G01 X-23.22159 Y32.51504
G01 X-23.31804 Y32.70770
G01 X-23.45014 Y32.87780
G01 X-23.61303 Y33.01892
G01 X-23.80023 Y33.12550
G01 X-24.00462 Y33.19352
G01 X-24.24780 Y33.22179
G01 X-30.85221 Y33.22182
G01 X-30.95927 Y33.26604
G01 X-31.01782 Y33.27178
G01 X-32.71779 Y33.27178
G01 X-32.77631 Y33.26604
G01 X-32.88444 Y33.22123
G01 X-32.96722 Y33.13845
G01 X-33.01202 Y33.03033
G01 X-33.01202 Y31.21329
G01 X-32.96722 Y31.10516
G01 X-32.92990 Y31.05969
G01 X-32.88444 Y31.02238
G01 X-32.77631 Y30.97758
G01 X-31.01782 Y30.97181
G01 X-30.95927 Y30.97758
G01 X-30.85221 Y31.02180
G01 X-25.34780 Y31.02180
G01 X-25.34633 Y20.66236
G01 X-25.31948 Y20.44867
G01 X-25.27396 Y20.29860
G01 X-25.17752 Y20.10594
G01 X-25.04541 Y19.93584
G01 X-24.83365 Y19.76208
G01 X-24.69533 Y19.68814
G01 X-24.49093 Y19.62012
G01 X-24.24780 Y19.59180
G01 X-17.89780 Y19.59180
G01 X-17.71226 Y19.60866
G01 X-17.50456 Y19.66563
G01 X-17.26303 Y19.79472
G01 X-17.10014 Y19.93584
G01 X-16.96804 Y20.10594
G01 X-16.87159 Y20.29860
G01 X-16.81459 Y20.50635
G01 X-16.79923 Y20.66241
G01 X-16.79781 Y27.21180
G01 X-14.77612 Y27.21180
G01 X-14.45915 Y27.06732
G01 X-14.19232 Y27.01728
G01 X-13.92090 Y27.02386
G01 X-13.68610 Y27.07545
G01 X-13.46578 Y27.17174
G01 X-13.19573 Y27.36793
G01 X-13.05585 Y27.52328
G01 X-12.91445 Y27.75505
G01 X-12.81778 Y28.04202
G04 P0 ( dwell for no time -- G64 should not smooth over this point )
G00 Z5.00000 ( retract )

G00 X-28.02781 Y16.88179 ( rapid move to begin. )
G01 F60.00000
G01 Z-0.05000
G04 P0 ( dwell for no time -- G64 should not smooth over this point )
G01 F120.00000
G01 X-28.02781 Y16.88179
G01 X-28.06433 Y16.58121
G01 X-28.14020 Y16.35304
G01 X-28.22781 Y16.19805
G01 X-28.22781 Y7.99179
G01 X-28.24459 Y7.80635
G01 X-28.30159 Y7.59860
G01 X-28.43068 Y7.35707
G01 X-28.57180 Y7.19418
G01 X-28.74190 Y7.06208
G01 X-28.93456 Y6.96563
G01 X-29.08462 Y6.92012
G01 X-29.29834 Y6.89327
G01 X-37.22751 Y6.89182
G01 X-37.58191 Y3.52487
G01 X-37.56220 Y3.31482
G01 X-37.56665 Y2.92267
G01 X-37.62614 Y2.63659
G01 X-37.72451 Y2.42292
G01 X-37.86385 Y2.23346
G01 X-37.99050 Y2.11307
G01 X-38.18679 Y1.98348
G01 X-38.46390 Y1.88086
G01 X-38.63662 Y1.85439
G01 X-38.87178 Y1.86018
G01 X-39.15786 Y1.93425
G01 X-39.36621 Y2.04332
G01 X-39.54838 Y2.19209
G01 X-39.69687 Y2.37446
G01 X-39.80563 Y2.58302
G01 X-39.87017 Y2.80923
G01 X-39.88938 Y3.01680
G01 X-39.87881 Y3.46595
G01 X-39.84363 Y3.63712
G01 X-39.76009 Y3.84738
G01 X-39.30680 Y8.13797
G01 X-39.26390 Y8.33185
G01 X-39.18460 Y8.51397
G01 X-39.03518 Y8.72794
G01 X-38.88869 Y8.86202
G01 X-38.63581 Y9.00800
G01 X-38.41544 Y9.07269
G01 X-38.21780 Y9.09179
G01 X-30.42780 Y9.09179
G01 X-30.42778 Y16.19805
G01 X-30.51538 Y16.35304
G01 X-30.59125 Y16.58121
G01 X-30.62780 Y16.88179
G01 X-30.59125 Y17.18240
G01 X-30.51538 Y17.41057
G01 X-30.42780 Y17.56556
G01 X-30.42780 Y25.94180
G01 X-91.55780 Y25.94180
G01 X-91.80093 Y25.97012
G01 X-92.00533 Y26.03814
G01 X-92.19252 Y26.14472
G01 X-92.31376 Y26.24418
G01 X-92.48752 Y26.45594
G01 X-92.56146 Y26.59427
G01 X-92.62948 Y26.79867
G01 X-92.65780 Y27.04179
G01 X-92.65780 Y50.32580
G01 X-94.23966 Y50.32580
G01 X-94.40161 Y50.28142
G01 X-94.62104 Y50.26260
G01 X-94.75353 Y50.27279
G01 X-94.98155 Y50.32582
G01 X-96.77966 Y50.32580
G01 X-96.94161 Y50.28142
G01 X-97.16104 Y50.26260
G01 X-97.46470 Y50.30797
G01 X-97.73628 Y50.42453
G01 X-97.92574 Y50.56387
G01 X-98.08329 Y50.73852
G01 X-98.20244 Y50.94131
G01 X-98.27834 Y51.16392
G01 X-98.30788 Y51.39730
G01 X-98.28984 Y51.63174
G01 X-98.24605 Y51.80090
G01 X-98.14799 Y52.01474
G01 X-97.96711 Y52.24840
G01 X-97.78474 Y52.39689
G01 X-97.57618 Y52.50565
G01 X-97.40946 Y52.55797
G01 X-97.17613 Y52.58787
G01 X-96.99805 Y52.57883
G01 X-96.77004 Y52.52579
G01 X-94.97192 Y52.52582
G01 X-94.80997 Y52.57019
G01 X-94.59054 Y52.58901
G01 X-94.45805 Y52.57883
G01 X-94.23004 Y52.52579
G01 X-91.78239 Y52.52437
G01 X-91.62631 Y52.50900
G01 X-91.41856 Y52.45201
G01 X-91.17703 Y52.32292
G01 X-91.03395 Y52.20364
G01 X-90.76014 Y51.92780
G01 X-90.62804 Y51.75770
G01 X-90.53159 Y51.56504
G01 X-90.47459 Y51.35729
G01 X-90.45781 Y51.17179
G01 X-90.45781 Y28.14179
G01 X-29.32780 Y28.14179
G01 X-29.14231 Y28.12500
G01 X-28.88023 Y28.04550
G01 X-28.69303 Y27.93892
G01 X-28.57180 Y27.83946
G01 X-28.43068 Y27.67657
G01 X-28.32410 Y27.48937
G01 X-28.24459 Y27.22729
G01 X-28.22781 Y27.04179
G01 X-28.22781 Y17.56556
G01 X-28.14020 Y17.41057
G01 X-28.06433 Y17.18240
G01 X-28.02781 Y16.88179
G04 P0 ( dwell for no time -- G64 should not smooth over this point )
G00 Z5.00000 ( retract )

G00 X-28.04089 Y4.35182 ( rapid move to begin. )
G01 F60.00000
G01 Z-0.05000
G04 P0 ( dwell for no time -- G64 should not smooth over this point )
G01 F120.00000
G01 X-28.04089 Y4.35182
G01 X-26.75834 Y4.35327
G01 X-26.54462 Y4.38012
G01 X-26.34023 Y4.44814
G01 X-26.15303 Y4.55472
G01 X-26.03180 Y4.65418
G01 X-25.89068 Y4.81707
G01 X-25.76159 Y5.05860
G01 X-25.70459 Y5.26635
G01 X-25.68923 Y5.42241
G01 X-25.68781 Y29.58179
G01 X-25.71608 Y29.82497
G01 X-25.78410 Y30.02937
G01 X-25.89068 Y30.21657
G01 X-25.99014 Y30.33780
G01 X-26.15303 Y30.47892
G01 X-26.39456 Y30.60801
G01 X-26.60231 Y30.66500
G01 X-26.78780 Y30.68179
G01 X-52.76946 Y30.68179
G01 X-53.02679 Y30.80691
G01 X-53.35328 Y30.87631
G01 X-53.62468 Y30.86975
G01 X-53.82915 Y30.82629
G01 X-54.14609 Y30.68179
G01 X-81.56781 Y30.68179
G01 X-81.56781 Y38.72623
G01 X-81.52356 Y38.83329
G01 X-81.51782 Y38.89181
G01 X-81.52356 Y40.65033
G01 X-81.56836 Y40.75845
G01 X-81.60568 Y40.80392
G01 X-81.70301 Y40.86894
G01 X-81.81782 Y40.89178
G01 X-82.26209 Y40.89178
G01 X-84.10778 Y42.73747
G01 X-84.10778 Y46.34623
G01 X-84.06356 Y46.45329
G01 X-84.05782 Y46.51181
G01 X-84.05782 Y48.21178
G01 X-84.06356 Y48.27033
G01 X-84.10836 Y48.37845
G01 X-84.19114 Y48.46123
G01 X-84.29927 Y48.50604
G01 X-84.35782 Y48.51178
G01 X-86.05779 Y48.51178
G01 X-86.11631 Y48.50604
G01 X-86.22444 Y48.46123
G01 X-86.30722 Y48.37845
G01 X-86.35202 Y48.27033
G01 X-86.35779 Y48.21178
G01 X-86.35779 Y46.51181
G01 X-86.35202 Y46.45329
G01 X-86.30778 Y46.34623
G01 X-86.30780 Y42.28179
G01 X-86.29094 Y42.09630
G01 X-86.21146 Y41.83427
G01 X-86.10488 Y41.64707
G01 X-86.00541 Y41.52584
G01 X-83.81779 Y39.33616
G01 X-83.81779 Y38.89181
G01 X-83.81202 Y38.83329
G01 X-83.76778 Y38.72623
G01 X-83.76633 Y29.55236
G01 X-83.73948 Y29.33867
G01 X-83.69396 Y29.18860
G01 X-83.56488 Y28.94707
G01 X-83.46541 Y28.82584
G01 X-83.30252 Y28.68472
G01 X-83.06100 Y28.55563
G01 X-82.85330 Y28.49866
G01 X-82.66780 Y28.48180
G01 X-54.14612 Y28.48180
G01 X-53.88879 Y28.35670
G01 X-53.56232 Y28.28728
G01 X-53.35328 Y28.28728
G01 X-53.08643 Y28.33732
G01 X-52.76949 Y28.48180
G01 X-27.88780 Y28.48180
G01 X-27.88780 Y6.55179
G01 X-35.67780 Y6.55179
G01 X-35.86025 Y6.53556
G01 X-36.06495 Y6.48034
G01 X-36.25515 Y6.38692
G01 X-36.46538 Y6.21829
G01 X-36.59784 Y6.05286
G01 X-36.69611 Y5.86505
G01 X-36.75156 Y5.69045
G01 X-37.12896 Y3.99221
G01 X-37.21654 Y3.85561
G01 X-37.30363 Y3.63712
G01 X-37.34493 Y3.40895
G01 X-37.34938 Y3.01680
G01 X-37.33017 Y2.80923
G01 X-37.26563 Y2.58302
G01 X-37.15687 Y2.37446
G01 X-37.00838 Y2.19209
G01 X-36.82621 Y2.04332
G01 X-36.61786 Y1.93425
G01 X-36.39172 Y1.86935
G01 X-36.15728 Y1.85132
G01 X-35.92390 Y1.88086
G01 X-35.70130 Y1.95675
G01 X-35.49850 Y2.07591
G01 X-35.32385 Y2.23346
G01 X-35.15505 Y2.47601
G01 X-35.06795 Y2.69450
G01 X-35.03277 Y2.86567
G01 X-35.02281 Y3.32835
G01 X-34.79538 Y4.35182
G01 X-34.17730 Y4.35182
G01 X-33.95142 Y4.39503
G01 X-33.67758 Y4.41611
G01 X-33.45391 Y4.40793
G01 X-33.12086 Y4.35180
G01 X-31.63730 Y4.35182
G01 X-31.41142 Y4.39503
G01 X-31.13758 Y4.41611
G01 X-30.91391 Y4.40793
G01 X-30.58086 Y4.35180
G01 X-29.09730 Y4.35182
G01 X-28.82016 Y4.40158
G01 X-28.59758 Y4.41611
G01 X-28.37391 Y4.40793
G01 X-28.04089 Y4.35182
G01 X-27.92537 Y4.28830
G01 X-27.78719 Y4.18134
G01 X-27.62938 Y4.00697
G01 X-27.50990 Y3.80438
G01 X-27.42141 Y3.52239
G01 X-27.40220 Y3.31482
G01 X-27.40665 Y2.92267
G01 X-27.46614 Y2.63659
G01 X-27.56451 Y2.42292
G01 X-27.70385 Y2.23346
G01 X-27.87850 Y2.07591
G01 X-28.08130 Y1.95675
G01 X-28.30390 Y1.88086
G01 X-28.53728 Y1.85132
G01 X-28.77172 Y1.86935
G01 X-28.99786 Y1.93425
G01 X-29.20621 Y2.04332
G01 X-29.38838 Y2.19209
G01 X-29.53687 Y2.37446
G01 X-29.64563 Y2.58302
G01 X-29.71017 Y2.80923
G01 X-29.72938 Y3.01680
G01 X-29.72493 Y3.40895
G01 X-29.68363 Y3.63712
G01 X-29.59654 Y3.85561
G01 X-29.46725 Y4.05210
G01 X-29.30108 Y4.21855
G01 X-29.09730 Y4.35182
G04 P0 ( dwell for no time -- G64 should not smooth over this point )
G00 Z5.00000 ( retract )

G00 X-30.58086 Y4.35180 ( rapid move to begin. )
G01 F60.00000
G01 Z-0.05000
G04 P0 ( dwell for no time -- G64 should not smooth over this point )
G01 F120.00000
G01 X-30.58086 Y4.35180
G01 X-30.46537 Y4.28830
G01 X-30.28320 Y4.13953
G01 X-30.13471 Y3.95716
G01 X-30.02595 Y3.74860
G01 X-29.97362 Y3.58187
G01 X-29.94373 Y3.34855
G01 X-29.95277 Y2.86567
G01 X-30.00614 Y2.63659
G01 X-30.10451 Y2.42292
G01 X-30.24385 Y2.23346
G01 X-30.37050 Y2.11307
G01 X-30.62130 Y1.95675
G01 X-30.84390 Y1.88086
G01 X-31.07728 Y1.85132
G01 X-31.31172 Y1.86935
G01 X-31.48088 Y1.91314
G01 X-31.74621 Y2.04332
G01 X-31.92838 Y2.19209
G01 X-32.04220 Y2.32465
G01 X-32.16168 Y2.52724
G01 X-32.23796 Y2.74974
G01 X-32.26938 Y3.01680
G01 X-32.26493 Y3.40895
G01 X-32.20545 Y3.69503
G01 X-32.10707 Y3.90869
G01 X-31.96773 Y4.09815
G01 X-31.79308 Y4.25571
G01 X-31.63730 Y4.35182
G04 P0 ( dwell for no time -- G64 should not smooth over this point )
G00 Z5.00000 ( retract )

G00 X-33.12086 Y4.35180 ( rapid move to begin. )
G01 F60.00000
G01 Z-0.05000
G04 P0 ( dwell for no time -- G64 should not smooth over this point )
G01 F120.00000
G01 X-33.12086 Y4.35180
G01 X-33.00537 Y4.28830
G01 X-32.82320 Y4.13953
G01 X-32.67471 Y3.95716
G01 X-32.56595 Y3.74860
G01 X-32.51362 Y3.58187
G01 X-32.48373 Y3.34855
G01 X-32.49277 Y2.86567
G01 X-32.54614 Y2.63659
G01 X-32.64451 Y2.42292
G01 X-32.78385 Y2.23346
G01 X-32.91050 Y2.11307
G01 X-33.16130 Y1.95675
G01 X-33.38390 Y1.88086
G01 X-33.61728 Y1.85132
G01 X-33.85172 Y1.86935
G01 X-34.02088 Y1.91314
G01 X-34.28621 Y2.04332
G01 X-34.46838 Y2.19209
G01 X-34.58220 Y2.32465
G01 X-34.70168 Y2.52724
G01 X-34.77796 Y2.74974
G01 X-34.80938 Y3.01680
G01 X-34.80493 Y3.40895
G01 X-34.74545 Y3.69503
G01 X-34.64707 Y3.90869
G01 X-34.50773 Y4.09815
G01 X-34.33308 Y4.25571
G01 X-34.17730 Y4.35182
G04 P0 ( dwell for no time -- G64 should not smooth over this point )
G00 Z5.00000 ( retract )

G00 X-40.10220 Y3.31482 ( rapid move to begin. )
G01 F60.00000
G01 Z-0.05000
G04 P0 ( dwell for no time -- G64 should not smooth over this point )
G01 F120.00000
G01 X-40.10220 Y3.31482
G01 X-40.13362 Y3.58187
G01 X-40.18595 Y3.74860
G01 X-40.29471 Y3.95716
G01 X-40.48719 Y4.18134
G01 X-40.67685 Y4.32040
G01 X-40.83372 Y4.39736
G01 X-41.05986 Y4.46226
G01 X-41.35496 Y4.47722
G01 X-41.58643 Y4.43554
G01 X-41.75028 Y4.37486
G01 X-41.93687 Y4.26582
G01 X-42.53745 Y4.26579
G01 X-42.20619 Y6.59391
G01 X-42.20131 Y6.79744
G01 X-42.23405 Y6.99830
G01 X-42.28089 Y7.13884
G01 X-42.37528 Y7.31923
G01 X-42.51995 Y7.49964
G01 X-47.27778 Y12.25747
G01 X-47.27778 Y23.81805
G01 X-47.19020 Y23.97304
G01 X-47.10130 Y24.26253
G01 X-47.07781 Y24.50179
G01 X-47.10130 Y24.74109
G01 X-47.19020 Y25.03057
G01 X-47.30900 Y25.23961
G01 X-47.48573 Y25.44568
G01 X-47.72779 Y25.62762
G01 X-48.00643 Y25.74629
G01 X-48.27328 Y25.79631
G01 X-48.54468 Y25.78975
G01 X-48.80882 Y25.72691
G01 X-49.05410 Y25.61053
G01 X-49.22324 Y25.48764
G01 X-49.44658 Y25.23961
G01 X-49.56538 Y25.03057
G01 X-49.64125 Y24.80240
G01 X-49.67780 Y24.50179
G01 X-49.64125 Y24.20121
G01 X-49.56538 Y23.97304
G01 X-49.47780 Y23.81805
G01 X-49.47780 Y11.80179
G01 X-49.45486 Y11.57891
G01 X-49.40137 Y11.40045
G01 X-49.28644 Y11.18211
G01 X-49.15560 Y11.02400
G01 X-44.46450 Y6.33292
G01 X-44.81210 Y3.89965
G01 X-44.92363 Y3.63712
G01 X-44.96493 Y3.40895
G01 X-44.96938 Y3.01680
G01 X-44.93796 Y2.74974
G01 X-44.88563 Y2.58302
G01 X-44.77687 Y2.37446
G01 X-44.58439 Y2.15028
G01 X-44.39473 Y2.01121
G01 X-44.23786 Y1.93425
G01 X-43.95178 Y1.86018
G01 X-43.71662 Y1.85439
G01 X-43.54390 Y1.88086
G01 X-43.32130 Y1.95675
G01 X-43.13471 Y2.06580
G01 X-41.93527 Y2.06580
G01 X-41.69786 Y1.93425
G01 X-41.47172 Y1.86935
G01 X-41.17662 Y1.85439
G01 X-40.94515 Y1.89607
G01 X-40.72679 Y1.98348
G01 X-40.57850 Y2.07591
G01 X-40.40385 Y2.23346
G01 X-40.26451 Y2.42292
G01 X-40.16614 Y2.63659
G01 X-40.11277 Y2.86567
G01 X-40.10220 Y3.31482
G04 P0 ( dwell for no time -- G64 should not smooth over this point )
G00 Z5.00000 ( retract )

G00 X-45.18220 Y3.31482 ( rapid move to begin. )
G01 F60.00000
G01 Z-0.05000
G04 P0 ( dwell for no time -- G64 should not smooth over this point )
G01 F120.00000
G01 X-45.18220 Y3.31482
G01 X-45.21362 Y3.58187
G01 X-45.28990 Y3.80438
G01 X-45.40938 Y4.00697
G01 X-45.56719 Y4.18134
G01 X-45.75685 Y4.32040
G01 X-45.97070 Y4.41847
G01 X-46.13986 Y4.46226
G01 X-46.37430 Y4.48030
G01 X-46.60768 Y4.45076
G01 X-46.83028 Y4.37486
G01 X-47.03308 Y4.25571
G01 X-47.20773 Y4.09815
G01 X-47.37654 Y3.85561
G01 X-47.46363 Y3.63712
G01 X-47.50493 Y3.40895
G01 X-47.50938 Y3.01680
G01 X-47.47796 Y2.74974
G01 X-47.40168 Y2.52724
G01 X-47.28220 Y2.32465
G01 X-47.12439 Y2.15028
G01 X-46.93473 Y2.01121
G01 X-46.72088 Y1.91314
G01 X-46.55172 Y1.86935
G01 X-46.31728 Y1.85132
G01 X-46.08390 Y1.88086
G01 X-45.86130 Y1.95675
G01 X-45.65850 Y2.07591
G01 X-45.48385 Y2.23346
G01 X-45.34451 Y2.42292
G01 X-45.24614 Y2.63659
G01 X-45.19277 Y2.86567
G01 X-45.18220 Y3.31482
G04 P0 ( dwell for no time -- G64 should not smooth over this point )
G00 Z5.00000 ( retract )

G00 X-55.12493 Y3.40895 ( rapid move to begin. )
G01 F60.00000
G01 Z-0.05000
G04 P0 ( dwell for no time -- G64 should not smooth over this point )
G01 F120.00000
G01 X-55.12493 Y3.40895
G01 X-55.06545 Y3.69503
G01 X-54.99654 Y3.85561
G01 X-54.90896 Y3.99218
G01 X-54.55780 Y5.57257
G01 X-54.55780 Y15.28335
G01 X-54.60322 Y15.52333
G01 X-54.59758 Y15.75571
G01 X-54.54525 Y15.98223
G01 X-54.44848 Y16.19351
G01 X-54.31107 Y16.38106
G01 X-54.13875 Y16.53707
G01 X-53.93857 Y16.65520
G01 X-53.71866 Y16.73061
G01 X-53.48818 Y16.76026
G01 X-53.31142 Y16.75129
G01 X-53.08506 Y16.69851
G01 X-52.92699 Y16.63069
G01 X-52.68671 Y16.46343
G01 X-52.53108 Y16.29079
G01 X-52.41333 Y16.09028
G01 X-52.35361 Y15.92899
G01 X-52.31236 Y15.70029
G01 X-52.31800 Y15.46790
G01 X-52.35781 Y15.28975
G01 X-52.35824 Y5.43541
G01 X-52.38399 Y5.21319
G01 X-52.80281 Y3.32838
G01 X-52.80665 Y2.92267
G01 X-52.86614 Y2.63659
G01 X-52.96451 Y2.42292
G01 X-53.10385 Y2.23346
G01 X-53.23050 Y2.11307
G01 X-53.42679 Y1.98348
G01 X-53.70390 Y1.88086
G01 X-53.93728 Y1.85132
G01 X-54.17172 Y1.86935
G01 X-54.34088 Y1.91314
G01 X-54.55473 Y2.01121
G01 X-54.74439 Y2.15028
G01 X-54.93687 Y2.37446
G01 X-55.04563 Y2.58302
G01 X-55.09796 Y2.74974
G01 X-55.12938 Y3.01680
G01 X-55.12493 Y3.40895
G01 X-55.34281 Y3.32838
G01 X-54.92399 Y5.21319
G01 X-54.89824 Y5.43541
G01 X-54.89778 Y15.28975
G01 X-54.85800 Y15.46790
G01 X-54.84929 Y15.63963
G01 X-54.87843 Y15.87029
G01 X-54.98010 Y16.14484
G01 X-55.10822 Y16.33877
G01 X-55.27276 Y16.50295
G01 X-55.46699 Y16.63069
G01 X-55.62506 Y16.69851
G01 X-55.85142 Y16.75129
G01 X-56.02818 Y16.76026
G01 X-56.25866 Y16.73061
G01 X-56.47857 Y16.65520
G01 X-56.62894 Y16.57174
G01 X-56.80926 Y16.42503
G01 X-56.98848 Y16.19351
G01 X-57.08525 Y15.98223
G01 X-57.13758 Y15.75571
G01 X-57.14322 Y15.52333
G01 X-57.09780 Y15.28335
G01 X-57.09780 Y5.57257
G01 X-57.44896 Y3.99218
G01 X-57.53654 Y3.85561
G01 X-57.60545 Y3.69503
G01 X-57.65881 Y3.46595
G01 X-57.66938 Y3.01680
G01 X-57.63796 Y2.74974
G01 X-57.56168 Y2.52724
G01 X-57.44220 Y2.32465
G01 X-57.28439 Y2.15028
G01 X-57.09473 Y2.01121
G01 X-56.88088 Y1.91314
G01 X-56.71172 Y1.86935
G01 X-56.47728 Y1.85132
G01 X-56.24390 Y1.88086
G01 X-56.02130 Y1.95675
G01 X-55.81850 Y2.07591
G01 X-55.64385 Y2.23346
G01 X-55.50451 Y2.42292
G01 X-55.40614 Y2.63659
G01 X-55.35277 Y2.86567
G01 X-55.34281 Y3.32838
G04 P0 ( dwell for no time -- G64 should not smooth over this point )
G00 Z5.00000 ( retract )

G00 X-67.82785 Y2.98307 ( rapid move to begin. )
G01 F60.00000
G01 Z-0.05000
G04 P0 ( dwell for no time -- G64 should not smooth over this point )
G01 F120.00000
G01 X-67.82785 Y2.98307
G01 X-67.79796 Y2.74974
G01 X-67.72168 Y2.52724
G01 X-67.60220 Y2.32465
G01 X-67.48838 Y2.19209
G01 X-67.30621 Y2.04332
G01 X-67.09786 Y1.93425
G01 X-66.87172 Y1.86935
G01 X-66.57662 Y1.85439
G01 X-66.34515 Y1.89607
G01 X-66.12679 Y1.98348
G01 X-65.93050 Y2.11307
G01 X-65.76433 Y2.27951
G01 X-65.63505 Y2.47601
G01 X-65.54795 Y2.69450
G01 X-65.50665 Y2.92267
G01 X-65.50220 Y3.31482
G01 X-65.53362 Y3.58187
G01 X-65.60990 Y3.80438
G01 X-65.72938 Y4.00697
G01 X-65.84320 Y4.13953
G01 X-66.02537 Y4.28830
G01 X-66.29070 Y4.41847
G01 X-66.45986 Y4.46226
G01 X-66.69430 Y4.48030
G01 X-66.92768 Y4.45076
G01 X-67.15028 Y4.37486
G01 X-67.35308 Y4.25571
G01 X-67.52773 Y4.09815
G01 X-67.66707 Y3.90869
G01 X-67.78363 Y3.63712
G01 X-67.82493 Y3.40895
G01 X-67.82785 Y2.98307
G01 X-68.04665 Y2.92267
G01 X-68.04220 Y3.31482
G01 X-68.06141 Y3.52239
G01 X-68.14990 Y3.80438
G01 X-68.26938 Y4.00697
G01 X-68.42719 Y4.18134
G01 X-68.61685 Y4.32040
G01 X-68.83070 Y4.41847
G01 X-69.05980 Y4.47143
G01 X-69.29496 Y4.47722
G01 X-69.52643 Y4.43554
G01 X-69.74479 Y4.34814
G01 X-69.94108 Y4.21855
G01 X-70.06773 Y4.09815
G01 X-70.20707 Y3.90869
G01 X-70.30545 Y3.69503
G01 X-70.36493 Y3.40895
G01 X-70.36938 Y3.01680
G01 X-70.35017 Y2.80923
G01 X-70.28563 Y2.58302
G01 X-70.17687 Y2.37446
G01 X-70.02838 Y2.19209
G01 X-69.79473 Y2.01121
G01 X-69.58088 Y1.91314
G01 X-69.35178 Y1.86018
G01 X-69.11662 Y1.85439
G01 X-68.94390 Y1.88086
G01 X-68.72130 Y1.95675
G01 X-68.51850 Y2.07591
G01 X-68.34385 Y2.23346
G01 X-68.20451 Y2.42292
G01 X-68.10614 Y2.63659
G01 X-68.04665 Y2.92267
G04 P0 ( dwell for no time -- G64 should not smooth over this point )
G00 Z5.00000 ( retract )

G00 X-75.44785 Y2.98307 ( rapid move to begin. )
G01 F60.00000
G01 Z-0.05000
G04 P0 ( dwell for no time -- G64 should not smooth over this point )
G01 F120.00000
G01 X-75.44785 Y2.98307
G01 X-75.41796 Y2.74974
G01 X-75.34168 Y2.52724
G01 X-75.22220 Y2.32465
G01 X-75.10838 Y2.19209
G01 X-74.92621 Y2.04332
G01 X-74.71786 Y1.93425
G01 X-74.49172 Y1.86935
G01 X-74.19662 Y1.85439
G01 X-73.96515 Y1.89607
G01 X-73.74679 Y1.98348
G01 X-73.55050 Y2.11307
G01 X-73.38433 Y2.27951
G01 X-73.25505 Y2.47601
G01 X-73.16795 Y2.69450
G01 X-73.12665 Y2.92267
G01 X-73.12220 Y3.31482
G01 X-73.15362 Y3.58187
G01 X-73.22990 Y3.80438
G01 X-73.34938 Y4.00697
G01 X-73.46320 Y4.13953
G01 X-73.64537 Y4.28830
G01 X-73.91070 Y4.41847
G01 X-74.07986 Y4.46226
G01 X-74.31430 Y4.48030
G01 X-74.54768 Y4.45076
G01 X-74.77028 Y4.37486
G01 X-74.97308 Y4.25571
G01 X-75.14773 Y4.09815
G01 X-75.28707 Y3.90869
G01 X-75.40363 Y3.63712
G01 X-75.44493 Y3.40895
G01 X-75.44785 Y2.98307
G01 X-75.66665 Y2.92267
G01 X-75.66220 Y3.31482
G01 X-75.68141 Y3.52239
G01 X-75.76990 Y3.80438
G01 X-75.88938 Y4.00697
G01 X-76.04719 Y4.18134
G01 X-76.23685 Y4.32040
G01 X-76.45070 Y4.41847
G01 X-76.67980 Y4.47143
G01 X-76.91496 Y4.47722
G01 X-77.14643 Y4.43554
G01 X-77.36479 Y4.34814
G01 X-77.56108 Y4.21855
G01 X-77.68773 Y4.09815
G01 X-77.82707 Y3.90869
G01 X-77.92545 Y3.69503
G01 X-77.98493 Y3.40895
G01 X-77.98938 Y3.01680
G01 X-77.97017 Y2.80923
G01 X-77.90563 Y2.58302
G01 X-77.79687 Y2.37446
G01 X-77.64838 Y2.19209
G01 X-77.41473 Y2.01121
G01 X-77.20088 Y1.91314
G01 X-76.97178 Y1.86018
G01 X-76.73662 Y1.85439
G01 X-76.56390 Y1.88086
G01 X-76.34130 Y1.95675
G01 X-76.13850 Y2.07591
G01 X-75.96385 Y2.23346
G01 X-75.82451 Y2.42292
G01 X-75.72614 Y2.63659
G01 X-75.66665 Y2.92267
G04 P0 ( dwell for no time -- G64 should not smooth over this point )
G00 Z5.00000 ( retract )

G00 X-80.52785 Y2.98307 ( rapid move to begin. )
G01 F60.00000
G01 Z-0.05000
G04 P0 ( dwell for no time -- G64 should not smooth over this point )
G01 F120.00000
G01 X-80.52785 Y2.98307
G01 X-80.49796 Y2.74974
G01 X-80.42168 Y2.52724
G01 X-80.30220 Y2.32465
G01 X-80.18838 Y2.19209
G01 X-80.00621 Y2.04332
G01 X-79.79786 Y1.93425
G01 X-79.57172 Y1.86935
G01 X-79.27662 Y1.85439
G01 X-79.04515 Y1.89607
G01 X-78.82679 Y1.98348
G01 X-78.63050 Y2.11307
G01 X-78.46433 Y2.27951
G01 X-78.33505 Y2.47601
G01 X-78.24795 Y2.69450
G01 X-78.20665 Y2.92267
G01 X-78.20220 Y3.31482
G01 X-78.23362 Y3.58187
G01 X-78.30990 Y3.80438
G01 X-78.42938 Y4.00697
G01 X-78.54320 Y4.13953
G01 X-78.72537 Y4.28830
G01 X-78.99070 Y4.41847
G01 X-79.15986 Y4.46226
G01 X-79.39430 Y4.48030
G01 X-79.62768 Y4.45076
G01 X-79.85028 Y4.37486
G01 X-80.05308 Y4.25571
G01 X-80.22773 Y4.09815
G01 X-80.36707 Y3.90869
G01 X-80.48363 Y3.63712
G01 X-80.52493 Y3.40895
G01 X-80.52785 Y2.98307
G01 X-80.74665 Y2.92267
G01 X-80.74220 Y3.31482
G01 X-80.76141 Y3.52239
G01 X-80.84990 Y3.80438
G01 X-80.96938 Y4.00697
G01 X-81.12719 Y4.18134
G01 X-81.31685 Y4.32040
G01 X-81.53070 Y4.41847
G01 X-81.75980 Y4.47143
G01 X-81.99496 Y4.47722
G01 X-82.22643 Y4.43554
G01 X-82.44479 Y4.34814
G01 X-82.64108 Y4.21855
G01 X-82.76773 Y4.09815
G01 X-82.90707 Y3.90869
G01 X-83.00545 Y3.69503
G01 X-83.06493 Y3.40895
G01 X-83.06938 Y3.01680
G01 X-83.05017 Y2.80923
G01 X-82.98563 Y2.58302
G01 X-82.87687 Y2.37446
G01 X-82.72838 Y2.19209
G01 X-82.49473 Y2.01121
G01 X-82.28088 Y1.91314
G01 X-82.05178 Y1.86018
G01 X-81.81662 Y1.85439
G01 X-81.64390 Y1.88086
G01 X-81.42130 Y1.95675
G01 X-81.21850 Y2.07591
G01 X-81.04385 Y2.23346
G01 X-80.90451 Y2.42292
G01 X-80.80614 Y2.63659
G01 X-80.74665 Y2.92267
G04 P0 ( dwell for no time -- G64 should not smooth over this point )
G00 Z5.00000 ( retract )

G00 X-85.60785 Y2.98307 ( rapid move to begin. )
G01 F60.00000
G01 Z-0.05000
G04 P0 ( dwell for no time -- G64 should not smooth over this point )
G01 F120.00000
G01 X-85.60785 Y2.98307
G01 X-85.57796 Y2.74974
G01 X-85.50168 Y2.52724
G01 X-85.38220 Y2.32465
G01 X-85.26838 Y2.19209
G01 X-85.08621 Y2.04332
G01 X-84.87786 Y1.93425
G01 X-84.65172 Y1.86935
G01 X-84.35662 Y1.85439
G01 X-84.12515 Y1.89607
G01 X-83.90679 Y1.98348
G01 X-83.71050 Y2.11307
G01 X-83.54433 Y2.27951
G01 X-83.41505 Y2.47601
G01 X-83.32795 Y2.69450
G01 X-83.28665 Y2.92267
G01 X-83.28220 Y3.31482
G01 X-83.31362 Y3.58187
G01 X-83.38990 Y3.80438
G01 X-83.50938 Y4.00697
G01 X-83.62320 Y4.13953
G01 X-83.80537 Y4.28830
G01 X-84.07070 Y4.41847
G01 X-84.23986 Y4.46226
G01 X-84.47430 Y4.48030
G01 X-84.70768 Y4.45076
G01 X-84.93028 Y4.37486
G01 X-85.13308 Y4.25571
G01 X-85.30773 Y4.09815
G01 X-85.44707 Y3.90869
G01 X-85.56363 Y3.63712
G01 X-85.60493 Y3.40895
G01 X-85.60785 Y2.98307
G01 X-85.82665 Y2.92267
G01 X-85.82220 Y3.31482
G01 X-85.84141 Y3.52239
G01 X-85.92990 Y3.80438
G01 X-86.04938 Y4.00697
G01 X-86.20719 Y4.18134
G01 X-86.39685 Y4.32040
G01 X-86.61070 Y4.41847
G01 X-86.83980 Y4.47143
G01 X-87.07496 Y4.47722
G01 X-87.30643 Y4.43554
G01 X-87.52479 Y4.34814
G01 X-87.72108 Y4.21855
G01 X-87.84773 Y4.09815
G01 X-87.98707 Y3.90869
G01 X-88.08545 Y3.69503
G01 X-88.14493 Y3.40895
G01 X-88.14938 Y3.01680
G01 X-88.13017 Y2.80923
G01 X-88.06563 Y2.58302
G01 X-87.95687 Y2.37446
G01 X-87.80838 Y2.19209
G01 X-87.57473 Y2.01121
G01 X-87.36088 Y1.91314
G01 X-87.13178 Y1.86018
G01 X-86.89662 Y1.85439
G01 X-86.72390 Y1.88086
G01 X-86.50130 Y1.95675
G01 X-86.29850 Y2.07591
G01 X-86.12385 Y2.23346
G01 X-85.98451 Y2.42292
G01 X-85.88614 Y2.63659
G01 X-85.82665 Y2.92267
G04 P0 ( dwell for no time -- G64 should not smooth over this point )
G00 Z5.00000 ( retract )

G00 X-90.68785 Y2.98307 ( rapid move to begin. )
G01 F60.00000
G01 Z-0.05000
G04 P0 ( dwell for no time -- G64 should not smooth over this point )
G01 F120.00000
G01 X-90.68785 Y2.98307
G01 X-90.65796 Y2.74974
G01 X-90.58168 Y2.52724
G01 X-90.46220 Y2.32465
G01 X-90.34838 Y2.19209
G01 X-90.16621 Y2.04332
G01 X-89.95786 Y1.93425
G01 X-89.73172 Y1.86935
G01 X-89.43662 Y1.85439
G01 X-89.20515 Y1.89607
G01 X-88.98679 Y1.98348
G01 X-88.79050 Y2.11307
G01 X-88.62433 Y2.27951
G01 X-88.49505 Y2.47601
G01 X-88.40795 Y2.69450
G01 X-88.36665 Y2.92267
G01 X-88.36220 Y3.31482
G01 X-88.39362 Y3.58187
G01 X-88.46990 Y3.80438
G01 X-88.58938 Y4.00697
G01 X-88.70320 Y4.13953
G01 X-88.88537 Y4.28830
G01 X-89.15070 Y4.41847
G01 X-89.31986 Y4.46226
G01 X-89.55430 Y4.48030
G01 X-89.78768 Y4.45076
G01 X-90.01028 Y4.37486
G01 X-90.21308 Y4.25571
G01 X-90.38773 Y4.09815
G01 X-90.52707 Y3.90869
G01 X-90.64363 Y3.63712
G01 X-90.68493 Y3.40895
G01 X-90.68785 Y2.98307
G01 X-90.90665 Y2.92267
G01 X-90.90220 Y3.31482
G01 X-90.92141 Y3.52239
G01 X-91.00990 Y3.80438
G01 X-91.12938 Y4.00697
G01 X-91.28719 Y4.18134
G01 X-91.47685 Y4.32040
G01 X-91.69070 Y4.41847
G01 X-91.91980 Y4.47143
G01 X-92.15496 Y4.47722
G01 X-92.38643 Y4.43554
G01 X-92.60479 Y4.34814
G01 X-92.80108 Y4.21855
G01 X-92.92773 Y4.09815
G01 X-93.06707 Y3.90869
G01 X-93.16545 Y3.69503
G01 X-93.22493 Y3.40895
G01 X-93.22938 Y3.01680
G01 X-93.21017 Y2.80923
G01 X-93.14563 Y2.58302
G01 X-93.03687 Y2.37446
G01 X-92.88838 Y2.19209
G01 X-92.65473 Y2.01121
G01 X-92.44088 Y1.91314
G01 X-92.21178 Y1.86018
G01 X-91.97662 Y1.85439
G01 X-91.80390 Y1.88086
G01 X-91.58130 Y1.95675
G01 X-91.37850 Y2.07591
G01 X-91.20385 Y2.23346
G01 X-91.06451 Y2.42292
G01 X-90.96614 Y2.63659
G01 X-90.90665 Y2.92267
G04 P0 ( dwell for no time -- G64 should not smooth over this point )
G00 Z5.00000 ( retract )

G00 X-94.51556 Y9.40464 ( rapid move to begin. )
G01 F60.00000
G01 Z-0.05000
G04 P0 ( dwell for no time -- G64 should not smooth over this point )
G01 F120.00000
G01 X-94.51556 Y9.40464
G01 X-94.22897 Y9.34582
G01 X-93.02943 Y9.34582
G01 X-92.65780 Y9.71747
G01 X-92.65780 Y24.50179
G01 X-92.64094 Y24.68734
G01 X-92.58396 Y24.89504
G01 X-92.45488 Y25.13657
G01 X-92.35541 Y25.25780
G01 X-92.19252 Y25.39892
G01 X-91.95100 Y25.52801
G01 X-91.74325 Y25.58500
G01 X-91.55780 Y25.60179
G01 X-69.38609 Y25.60179
G01 X-69.09948 Y25.73816
G01 X-68.86468 Y25.78975
G01 X-68.59328 Y25.79631
G01 X-68.32643 Y25.74629
G01 X-68.04779 Y25.62762
G01 X-67.80573 Y25.44568
G01 X-67.66585 Y25.29034
G01 X-67.52445 Y25.05856
G01 X-67.42130 Y24.74109
G01 X-67.39781 Y24.50179
G01 X-67.42130 Y24.26253
G01 X-67.51020 Y23.97304
G01 X-67.59781 Y23.81805
G01 X-67.59781 Y20.52179
G01 X-66.14256 Y20.52141
G01 X-65.84203 Y20.47523
G01 X-65.60832 Y20.37427
G01 X-65.45057 Y20.26406
G01 X-65.35374 Y20.17183
G01 X-65.20015 Y19.96281
G01 X-65.10888 Y19.75283
G01 X-65.05895 Y19.45428
G01 X-65.06954 Y19.26200
G01 X-65.12430 Y19.04532
G01 X-65.22186 Y18.84392
G01 X-65.34071 Y18.68702
G01 X-65.55519 Y18.50292
G01 X-65.75250 Y18.40041
G01 X-65.90693 Y18.35195
G01 X-66.12742 Y18.32335
G01 X-67.59778 Y18.32180
G01 X-67.59778 Y9.71747
G01 X-65.37995 Y7.49964
G01 X-65.24229 Y7.33127
G01 X-65.13599 Y7.12863
G01 X-65.07396 Y6.90826
G01 X-65.05890 Y6.67976
G01 X-65.09143 Y6.45321
G01 X-65.17015 Y6.23833
G01 X-65.29171 Y6.04433
G01 X-65.45074 Y5.87976
G01 X-65.64038 Y5.75167
G01 X-65.85250 Y5.66564
G01 X-66.10789 Y5.62304
G01 X-66.35153 Y5.63960
G01 X-66.57137 Y5.70310
G01 X-66.70070 Y5.76528
G01 X-66.85867 Y5.87468
G01 X-69.48863 Y8.49789
G01 X-69.60644 Y8.64211
G01 X-69.67598 Y8.75976
G01 X-69.77486 Y9.03891
G01 X-69.79780 Y9.26179
G01 X-69.79780 Y23.40180
G01 X-90.45781 Y23.40180
G01 X-90.45781 Y9.26179
G01 X-90.48608 Y9.01867
G01 X-90.55410 Y8.81427
G01 X-90.66068 Y8.62707
G01 X-90.76014 Y8.50584
G01 X-91.79595 Y7.46800
G01 X-91.93903 Y7.34872
G01 X-92.12623 Y7.24214
G01 X-92.38826 Y7.16266
G01 X-92.57380 Y7.14580
G01 X-94.22897 Y7.14582
G01 X-94.51556 Y7.08694
G01 X-94.72739 Y7.08860
G01 X-94.98043 Y7.14580
G01 X-96.77966 Y7.14582
G01 X-96.94161 Y7.10142
G01 X-97.24839 Y7.08705
G01 X-97.52261 Y7.14615
G01 X-97.73628 Y7.24453
G01 X-97.92574 Y7.38387
G01 X-98.04613 Y7.51052
G01 X-98.17572 Y7.70681
G01 X-98.26312 Y7.92517
G01 X-98.30481 Y8.15664
G01 X-98.29901 Y8.39179
G01 X-98.24605 Y8.62090
G01 X-98.14799 Y8.83474
G01 X-98.00892 Y9.02441
G01 X-97.83455 Y9.18222
G01 X-97.63196 Y9.30170
G01 X-97.40946 Y9.37797
G01 X-97.17613 Y9.40787
G01 X-96.99805 Y9.39883
G01 X-96.77004 Y9.34582
G01 X-94.98035 Y9.34582
G01 X-94.72739 Y9.40302
G01 X-94.51556 Y9.40464
G01 X-94.57545 Y9.62374
G01 X-94.34213 Y9.65364
G01 X-94.11962 Y9.72992
G01 X-93.91703 Y9.84940
G01 X-93.74266 Y10.00721
G01 X-93.60360 Y10.19687
G01 X-93.52663 Y10.35374
G01 X-93.46174 Y10.57988
G01 X-93.44678 Y10.87497
G01 X-93.47324 Y11.04769
G01 X-93.54914 Y11.27030
G01 X-93.70545 Y11.52110
G01 X-93.82585 Y11.64774
G01 X-94.01530 Y11.78709
G01 X-94.28688 Y11.90365
G01 X-94.59054 Y11.94901
G01 X-94.80997 Y11.93019
G01 X-95.03618 Y11.86565
G01 X-95.24474 Y11.75689
G01 X-95.42711 Y11.60840
G01 X-95.57588 Y11.42623
G01 X-95.68495 Y11.21787
G01 X-95.74984 Y10.99174
G01 X-95.76788 Y10.75730
G01 X-95.73834 Y10.52392
G01 X-95.66244 Y10.30131
G01 X-95.54329 Y10.09852
G01 X-95.38574 Y9.92387
G01 X-95.19628 Y9.78453
G01 X-94.98261 Y9.68615
G01 X-94.75353 Y9.63279
G01 X-94.57545 Y9.62374
G04 P0 ( dwell for no time -- G64 should not smooth over this point )
G00 Z5.00000 ( retract )

G00 X-95.98370 Y10.81432 ( rapid move to begin. )
G01 F60.00000
G01 Z-0.05000
G04 P0 ( dwell for no time -- G64 should not smooth over this point )
G01 F120.00000
G01 X-95.98370 Y10.81432
G01 X-96.01324 Y11.04769
G01 X-96.08914 Y11.27030
G01 X-96.20829 Y11.47309
G01 X-96.36585 Y11.64774
G01 X-96.55530 Y11.78709
G01 X-96.76897 Y11.88546
G01 X-96.99805 Y11.93883
G01 X-97.13054 Y11.94901
G01 X-97.34997 Y11.93019
G01 X-97.57618 Y11.86565
G01 X-97.78474 Y11.75689
G01 X-97.96711 Y11.60840
G01 X-98.11588 Y11.42623
G01 X-98.22495 Y11.21787
G01 X-98.28984 Y10.99174
G01 X-98.30788 Y10.75730
G01 X-98.27834 Y10.52392
G01 X-98.20244 Y10.30131
G01 X-98.08329 Y10.09852
G01 X-97.92574 Y9.92387
G01 X-97.73628 Y9.78453
G01 X-97.52261 Y9.68615
G01 X-97.29353 Y9.63279
G01 X-97.16104 Y9.62260
G01 X-96.94161 Y9.64142
G01 X-96.71540 Y9.70596
G01 X-96.50684 Y9.81473
G01 X-96.32447 Y9.96322
G01 X-96.17570 Y10.14538
G01 X-96.06663 Y10.35374
G01 X-96.00174 Y10.57988
G01 X-95.98370 Y10.81432
G04 P0 ( dwell for no time -- G64 should not smooth over this point )
G00 Z5.00000 ( retract )

G00 X-93.44370 Y13.35432 ( rapid move to begin. )
G01 F60.00000
G01 Z-0.05000
G04 P0 ( dwell for no time -- G64 should not smooth over this point )
G01 F120.00000
G01 X-93.44370 Y13.35432
G01 X-93.47324 Y13.58769
G01 X-93.54914 Y13.81030
G01 X-93.66829 Y14.01309
G01 X-93.82585 Y14.18774
G01 X-94.01530 Y14.32709
G01 X-94.22897 Y14.42546
G01 X-94.45805 Y14.47883
G01 X-94.59054 Y14.48901
G01 X-94.80997 Y14.47019
G01 X-95.03618 Y14.40565
G01 X-95.24474 Y14.29689
G01 X-95.42711 Y14.14840
G01 X-95.57588 Y13.96623
G01 X-95.68495 Y13.75787
G01 X-95.74984 Y13.53174
G01 X-95.76788 Y13.29730
G01 X-95.73834 Y13.06392
G01 X-95.66244 Y12.84131
G01 X-95.54329 Y12.63852
G01 X-95.38574 Y12.46387
G01 X-95.19628 Y12.32453
G01 X-94.98261 Y12.22615
G01 X-94.75353 Y12.17279
G01 X-94.62104 Y12.16260
G01 X-94.40161 Y12.18142
G01 X-94.17540 Y12.24596
G01 X-93.96684 Y12.35473
G01 X-93.78447 Y12.50322
G01 X-93.63570 Y12.68538
G01 X-93.52663 Y12.89374
G01 X-93.46174 Y13.11988
G01 X-93.44370 Y13.35432
G04 P0 ( dwell for no time -- G64 should not smooth over this point )
G00 Z5.00000 ( retract )

G00 X-93.44370 Y15.89432 ( rapid move to begin. )
G01 F60.00000
G01 Z-0.05000
G04 P0 ( dwell for no time -- G64 should not smooth over this point )
G01 F120.00000
G01 X-93.44370 Y15.89432
G01 X-93.47324 Y16.12769
G01 X-93.54914 Y16.35030
G01 X-93.66829 Y16.55309
G01 X-93.82585 Y16.72774
G01 X-94.01530 Y16.86709
G01 X-94.22897 Y16.96546
G01 X-94.45805 Y17.01883
G01 X-94.59054 Y17.02901
G01 X-94.80997 Y17.01019
G01 X-95.03618 Y16.94565
G01 X-95.24474 Y16.83689
G01 X-95.42711 Y16.68840
G01 X-95.57588 Y16.50623
G01 X-95.68495 Y16.29787
G01 X-95.74984 Y16.07174
G01 X-95.76788 Y15.83730
G01 X-95.73834 Y15.60392
G01 X-95.66244 Y15.38131
G01 X-95.54329 Y15.17852
G01 X-95.38574 Y15.00387
G01 X-95.19628 Y14.86453
G01 X-94.98261 Y14.76615
G01 X-94.75353 Y14.71279
G01 X-94.62104 Y14.70260
G01 X-94.40161 Y14.72142
G01 X-94.17540 Y14.78596
G01 X-93.96684 Y14.89473
G01 X-93.78447 Y15.04322
G01 X-93.63570 Y15.22538
G01 X-93.52663 Y15.43374
G01 X-93.46174 Y15.65988
G01 X-93.44370 Y15.89432
G04 P0 ( dwell for no time -- G64 should not smooth over this point )
G00 Z5.00000 ( retract )

G00 X-95.98370 Y13.35432 ( rapid move to begin. )
G01 F60.00000
G01 Z-0.05000
G04 P0 ( dwell for no time -- G64 should not smooth over this point )
G01 F120.00000
G01 X-95.98370 Y13.35432
G01 X-96.00174 Y13.11988
G01 X-96.06663 Y12.89374
G01 X-96.17570 Y12.68538
G01 X-96.32447 Y12.50322
G01 X-96.50684 Y12.35473
G01 X-96.71540 Y12.24596
G01 X-96.94161 Y12.18142
G01 X-97.16104 Y12.16260
G01 X-97.29353 Y12.17279
G01 X-97.52261 Y12.22615
G01 X-97.73628 Y12.32453
G01 X-97.92574 Y12.46387
G01 X-98.08329 Y12.63852
G01 X-98.20244 Y12.84131
G01 X-98.27834 Y13.06392
G01 X-98.30788 Y13.29730
G01 X-98.28984 Y13.53174
G01 X-98.22495 Y13.75787
G01 X-98.11588 Y13.96623
G01 X-97.96711 Y14.14840
G01 X-97.78474 Y14.29689
G01 X-97.57618 Y14.40565
G01 X-97.34997 Y14.47019
G01 X-97.13054 Y14.48901
G01 X-96.99805 Y14.47883
G01 X-96.76897 Y14.42546
G01 X-96.55530 Y14.32709
G01 X-96.36585 Y14.18774
G01 X-96.20829 Y14.01309
G01 X-96.08914 Y13.81030
G01 X-96.01324 Y13.58769
G01 X-95.98370 Y13.35432
G04 P0 ( dwell for no time -- G64 should not smooth over this point )
G00 Z5.00000 ( retract )

G00 X-95.98370 Y15.89432 ( rapid move to begin. )
G01 F60.00000
G01 Z-0.05000
G04 P0 ( dwell for no time -- G64 should not smooth over this point )
G01 F120.00000
G01 X-95.98370 Y15.89432
G01 X-96.00174 Y15.65988
G01 X-96.06663 Y15.43374
G01 X-96.17570 Y15.22538
G01 X-96.32447 Y15.04322
G01 X-96.50684 Y14.89473
G01 X-96.71540 Y14.78596
G01 X-96.94161 Y14.72142
G01 X-97.16104 Y14.70260
G01 X-97.29353 Y14.71279
G01 X-97.52261 Y14.76615
G01 X-97.73628 Y14.86453
G01 X-97.92574 Y15.00387
G01 X-98.08329 Y15.17852
G01 X-98.20244 Y15.38131
G01 X-98.27834 Y15.60392
G01 X-98.30788 Y15.83730
G01 X-98.28984 Y16.07174
G01 X-98.22495 Y16.29787
G01 X-98.11588 Y16.50623
G01 X-97.96711 Y16.68840
G01 X-97.78474 Y16.83689
G01 X-97.57618 Y16.94565
G01 X-97.34997 Y17.01019
G01 X-97.13054 Y17.02901
G01 X-96.99805 Y17.01883
G01 X-96.76897 Y16.96546
G01 X-96.55530 Y16.86709
G01 X-96.36585 Y16.72774
G01 X-96.20829 Y16.55309
G01 X-96.08914 Y16.35030
G01 X-96.01324 Y16.12769
G01 X-95.98370 Y15.89432
G04 P0 ( dwell for no time -- G64 should not smooth over this point )
G00 Z5.00000 ( retract )

G00 X-95.98370 Y18.43432 ( rapid move to begin. )
G01 F60.00000
G01 Z-0.05000
G04 P0 ( dwell for no time -- G64 should not smooth over this point )
G01 F120.00000
G01 X-95.98370 Y18.43432
G01 X-96.00174 Y18.19988
G01 X-96.06663 Y17.97374
G01 X-96.17570 Y17.76538
G01 X-96.32447 Y17.58322
G01 X-96.50684 Y17.43473
G01 X-96.71540 Y17.32596
G01 X-96.94161 Y17.26142
G01 X-97.16104 Y17.24260
G01 X-97.29353 Y17.25279
G01 X-97.52261 Y17.30615
G01 X-97.73628 Y17.40453
G01 X-97.92574 Y17.54387
G01 X-98.08329 Y17.71852
G01 X-98.20244 Y17.92131
G01 X-98.27834 Y18.14392
G01 X-98.30788 Y18.37730
G01 X-98.28984 Y18.61174
G01 X-98.22495 Y18.83787
G01 X-98.11588 Y19.04623
G01 X-97.96711 Y19.22840
G01 X-97.78474 Y19.37689
G01 X-97.57618 Y19.48565
G01 X-97.34997 Y19.55019
G01 X-97.13054 Y19.56901
G01 X-96.99805 Y19.55883
G01 X-96.76897 Y19.50546
G01 X-96.55530 Y19.40709
G01 X-96.36585 Y19.26774
G01 X-96.20829 Y19.09309
G01 X-96.08914 Y18.89030
G01 X-96.01324 Y18.66769
G01 X-95.98370 Y18.43432
G04 P0 ( dwell for no time -- G64 should not smooth over this point )
G00 Z5.00000 ( retract )

G00 X-95.98370 Y20.97432 ( rapid move to begin. )
G01 F60.00000
G01 Z-0.05000
G04 P0 ( dwell for no time -- G64 should not smooth over this point )
G01 F120.00000
G01 X-95.98370 Y20.97432
G01 X-96.00174 Y20.73988
G01 X-96.06663 Y20.51374
G01 X-96.17570 Y20.30538
G01 X-96.32447 Y20.12322
G01 X-96.50684 Y19.97473
G01 X-96.71540 Y19.86596
G01 X-96.94161 Y19.80142
G01 X-97.16104 Y19.78260
G01 X-97.29353 Y19.79279
G01 X-97.52261 Y19.84615
G01 X-97.73628 Y19.94453
G01 X-97.92574 Y20.08387
G01 X-98.08329 Y20.25852
G01 X-98.20244 Y20.46131
G01 X-98.27834 Y20.68392
G01 X-98.30788 Y20.91730
G01 X-98.28984 Y21.15174
G01 X-98.22495 Y21.37787
G01 X-98.11588 Y21.58623
G01 X-97.96711 Y21.76840
G01 X-97.78474 Y21.91689
G01 X-97.57618 Y22.02565
G01 X-97.34997 Y22.09019
G01 X-97.13054 Y22.10901
G01 X-96.99805 Y22.09883
G01 X-96.76897 Y22.04546
G01 X-96.55530 Y21.94709
G01 X-96.36585 Y21.80774
G01 X-96.20829 Y21.63309
G01 X-96.08914 Y21.43030
G01 X-96.01324 Y21.20769
G01 X-95.98370 Y20.97432
G04 P0 ( dwell for no time -- G64 should not smooth over this point )
G00 Z5.00000 ( retract )

G00 X-95.98370 Y23.51432 ( rapid move to begin. )
G01 F60.00000
G01 Z-0.05000
G04 P0 ( dwell for no time -- G64 should not smooth over this point )
G01 F120.00000
G01 X-95.98370 Y23.51432
G01 X-96.00174 Y23.27988
G01 X-96.06663 Y23.05374
G01 X-96.17570 Y22.84538
G01 X-96.32447 Y22.66322
G01 X-96.50684 Y22.51473
G01 X-96.71540 Y22.40596
G01 X-96.94161 Y22.34142
G01 X-97.16104 Y22.32260
G01 X-97.29353 Y22.33279
G01 X-97.52261 Y22.38615
G01 X-97.73628 Y22.48453
G01 X-97.92574 Y22.62387
G01 X-98.08329 Y22.79852
G01 X-98.20244 Y23.00131
G01 X-98.27834 Y23.22392
G01 X-98.30788 Y23.45730
G01 X-98.28984 Y23.69174
G01 X-98.22495 Y23.91787
G01 X-98.11588 Y24.12623
G01 X-97.96711 Y24.30840
G01 X-97.78474 Y24.45689
G01 X-97.57618 Y24.56565
G01 X-97.34997 Y24.63019
G01 X-97.13054 Y24.64901
G01 X-96.99805 Y24.63883
G01 X-96.76897 Y24.58546
G01 X-96.55530 Y24.48709
G01 X-96.36585 Y24.34774
G01 X-96.20829 Y24.17309
G01 X-96.08914 Y23.97030
G01 X-96.01324 Y23.74769
G01 X-95.98370 Y23.51432
G04 P0 ( dwell for no time -- G64 should not smooth over this point )
G00 Z5.00000 ( retract )

G00 X-95.98370 Y26.05432 ( rapid move to begin. )
G01 F60.00000
G01 Z-0.05000
G04 P0 ( dwell for no time -- G64 should not smooth over this point )
G01 F120.00000
G01 X-95.98370 Y26.05432
G01 X-96.00174 Y25.81988
G01 X-96.06663 Y25.59374
G01 X-96.17570 Y25.38538
G01 X-96.32447 Y25.20322
G01 X-96.50684 Y25.05473
G01 X-96.71540 Y24.94596
G01 X-96.94161 Y24.88142
G01 X-97.16104 Y24.86260
G01 X-97.29353 Y24.87279
G01 X-97.52261 Y24.92615
G01 X-97.73628 Y25.02453
G01 X-97.92574 Y25.16387
G01 X-98.08329 Y25.33852
G01 X-98.20244 Y25.54131
G01 X-98.27834 Y25.76392
G01 X-98.30788 Y25.99730
G01 X-98.28984 Y26.23174
G01 X-98.22495 Y26.45787
G01 X-98.11588 Y26.66623
G01 X-97.96711 Y26.84840
G01 X-97.78474 Y26.99689
G01 X-97.57618 Y27.10565
G01 X-97.34997 Y27.17019
G01 X-97.13054 Y27.18901
G01 X-96.99805 Y27.17883
G01 X-96.76897 Y27.12546
G01 X-96.55530 Y27.02709
G01 X-96.36585 Y26.88774
G01 X-96.20829 Y26.71309
G01 X-96.08914 Y26.51030
G01 X-96.01324 Y26.28769
G01 X-95.98370 Y26.05432
G04 P0 ( dwell for no time -- G64 should not smooth over this point )
G00 Z5.00000 ( retract )

G00 X-95.98370 Y28.59432 ( rapid move to begin. )
G01 F60.00000
G01 Z-0.05000
G04 P0 ( dwell for no time -- G64 should not smooth over this point )
G01 F120.00000
G01 X-95.98370 Y28.59432
G01 X-96.00174 Y28.35988
G01 X-96.06663 Y28.13374
G01 X-96.17570 Y27.92538
G01 X-96.32447 Y27.74322
G01 X-96.50684 Y27.59473
G01 X-96.71540 Y27.48596
G01 X-96.94161 Y27.42142
G01 X-97.16104 Y27.40260
G01 X-97.29353 Y27.41279
G01 X-97.52261 Y27.46615
G01 X-97.73628 Y27.56453
G01 X-97.92574 Y27.70387
G01 X-98.08329 Y27.87852
G01 X-98.20244 Y28.08131
G01 X-98.27834 Y28.30392
G01 X-98.30788 Y28.53730
G01 X-98.28984 Y28.77174
G01 X-98.22495 Y28.99787
G01 X-98.11588 Y29.20623
G01 X-97.96711 Y29.38840
G01 X-97.78474 Y29.53689
G01 X-97.57618 Y29.64565
G01 X-97.34997 Y29.71019
G01 X-97.13054 Y29.72901
G01 X-96.99805 Y29.71883
G01 X-96.76897 Y29.66546
G01 X-96.55530 Y29.56709
G01 X-96.36585 Y29.42774
G01 X-96.20829 Y29.25309
G01 X-96.08914 Y29.05030
G01 X-96.01324 Y28.82769
G01 X-95.98370 Y28.59432
G04 P0 ( dwell for no time -- G64 should not smooth over this point )
G00 Z5.00000 ( retract )

G00 X-95.98370 Y31.13432 ( rapid move to begin. )
G01 F60.00000
G01 Z-0.05000
G04 P0 ( dwell for no time -- G64 should not smooth over this point )
G01 F120.00000
G01 X-95.98370 Y31.13432
G01 X-96.00174 Y30.89988
G01 X-96.06663 Y30.67374
G01 X-96.17570 Y30.46538
G01 X-96.32447 Y30.28322
G01 X-96.50684 Y30.13473
G01 X-96.71540 Y30.02596
G01 X-96.94161 Y29.96142
G01 X-97.16104 Y29.94260
G01 X-97.29353 Y29.95279
G01 X-97.52261 Y30.00615
G01 X-97.73628 Y30.10453
G01 X-97.92574 Y30.24387
G01 X-98.08329 Y30.41852
G01 X-98.20244 Y30.62131
G01 X-98.27834 Y30.84392
G01 X-98.30788 Y31.07730
G01 X-98.28984 Y31.31174
G01 X-98.22495 Y31.53787
G01 X-98.11588 Y31.74623
G01 X-97.96711 Y31.92840
G01 X-97.78474 Y32.07689
G01 X-97.57618 Y32.18565
G01 X-97.34997 Y32.25019
G01 X-97.13054 Y32.26901
G01 X-96.99805 Y32.25883
G01 X-96.76897 Y32.20546
G01 X-96.55530 Y32.10709
G01 X-96.36585 Y31.96774
G01 X-96.20829 Y31.79309
G01 X-96.08914 Y31.59030
G01 X-96.01324 Y31.36769
G01 X-95.98370 Y31.13432
G04 P0 ( dwell for no time -- G64 should not smooth over this point )
G00 Z5.00000 ( retract )

G00 X-95.98370 Y33.67432 ( rapid move to begin. )
G01 F60.00000
G01 Z-0.05000
G04 P0 ( dwell for no time -- G64 should not smooth over this point )
G01 F120.00000
G01 X-95.98370 Y33.67432
G01 X-96.00174 Y33.43988
G01 X-96.06663 Y33.21374
G01 X-96.17570 Y33.00538
G01 X-96.32447 Y32.82322
G01 X-96.50684 Y32.67473
G01 X-96.71540 Y32.56596
G01 X-96.94161 Y32.50142
G01 X-97.16104 Y32.48260
G01 X-97.29353 Y32.49279
G01 X-97.52261 Y32.54615
G01 X-97.73628 Y32.64453
G01 X-97.92574 Y32.78387
G01 X-98.08329 Y32.95852
G01 X-98.20244 Y33.16131
G01 X-98.27834 Y33.38392
G01 X-98.30788 Y33.61730
G01 X-98.28984 Y33.85174
G01 X-98.22495 Y34.07787
G01 X-98.11588 Y34.28623
G01 X-97.96711 Y34.46840
G01 X-97.78474 Y34.61689
G01 X-97.57618 Y34.72565
G01 X-97.34997 Y34.79019
G01 X-97.13054 Y34.80901
G01 X-96.99805 Y34.79883
G01 X-96.76897 Y34.74546
G01 X-96.55530 Y34.64709
G01 X-96.36585 Y34.50774
G01 X-96.20829 Y34.33309
G01 X-96.08914 Y34.13030
G01 X-96.01324 Y33.90769
G01 X-95.98370 Y33.67432
G04 P0 ( dwell for no time -- G64 should not smooth over this point )
G00 Z5.00000 ( retract )

G00 X-95.98370 Y36.21432 ( rapid move to begin. )
G01 F60.00000
G01 Z-0.05000
G04 P0 ( dwell for no time -- G64 should not smooth over this point )
G01 F120.00000
G01 X-95.98370 Y36.21432
G01 X-96.00174 Y35.97988
G01 X-96.06663 Y35.75374
G01 X-96.17570 Y35.54538
G01 X-96.32447 Y35.36322
G01 X-96.50684 Y35.21473
G01 X-96.71540 Y35.10596
G01 X-96.94161 Y35.04142
G01 X-97.16104 Y35.02260
G01 X-97.29353 Y35.03279
G01 X-97.52261 Y35.08615
G01 X-97.73628 Y35.18453
G01 X-97.92574 Y35.32387
G01 X-98.08329 Y35.49852
G01 X-98.20244 Y35.70131
G01 X-98.27834 Y35.92392
G01 X-98.30788 Y36.15730
G01 X-98.28984 Y36.39174
G01 X-98.22495 Y36.61787
G01 X-98.11588 Y36.82623
G01 X-97.96711 Y37.00840
G01 X-97.78474 Y37.15689
G01 X-97.57618 Y37.26565
G01 X-97.34997 Y37.33019
G01 X-97.13054 Y37.34901
G01 X-96.99805 Y37.33883
G01 X-96.76897 Y37.28546
G01 X-96.55530 Y37.18709
G01 X-96.36585 Y37.04774
G01 X-96.20829 Y36.87309
G01 X-96.08914 Y36.67030
G01 X-96.01324 Y36.44769
G01 X-95.98370 Y36.21432
G04 P0 ( dwell for no time -- G64 should not smooth over this point )
G00 Z5.00000 ( retract )

G00 X-95.98370 Y38.75432 ( rapid move to begin. )
G01 F60.00000
G01 Z-0.05000
G04 P0 ( dwell for no time -- G64 should not smooth over this point )
G01 F120.00000
G01 X-95.98370 Y38.75432
G01 X-96.00174 Y38.51988
G01 X-96.06663 Y38.29374
G01 X-96.17570 Y38.08538
G01 X-96.32447 Y37.90322
G01 X-96.50684 Y37.75473
G01 X-96.71540 Y37.64596
G01 X-96.94161 Y37.58142
G01 X-97.16104 Y37.56260
G01 X-97.29353 Y37.57279
G01 X-97.52261 Y37.62615
G01 X-97.73628 Y37.72453
G01 X-97.92574 Y37.86387
G01 X-98.08329 Y38.03852
G01 X-98.20244 Y38.24131
G01 X-98.27834 Y38.46392
G01 X-98.30788 Y38.69730
G01 X-98.28984 Y38.93174
G01 X-98.22495 Y39.15787
G01 X-98.11588 Y39.36623
G01 X-97.96711 Y39.54840
G01 X-97.78474 Y39.69689
G01 X-97.57618 Y39.80565
G01 X-97.34997 Y39.87019
G01 X-97.13054 Y39.88901
G01 X-96.99805 Y39.87883
G01 X-96.76897 Y39.82546
G01 X-96.55530 Y39.72709
G01 X-96.36585 Y39.58774
G01 X-96.20829 Y39.41309
G01 X-96.08914 Y39.21030
G01 X-96.01324 Y38.98769
G01 X-95.98370 Y38.75432
G04 P0 ( dwell for no time -- G64 should not smooth over this point )
G00 Z5.00000 ( retract )

G00 X-95.98370 Y41.29432 ( rapid move to begin. )
G01 F60.00000
G01 Z-0.05000
G04 P0 ( dwell for no time -- G64 should not smooth over this point )
G01 F120.00000
G01 X-95.98370 Y41.29432
G01 X-96.00174 Y41.05988
G01 X-96.06663 Y40.83374
G01 X-96.17570 Y40.62538
G01 X-96.32447 Y40.44322
G01 X-96.50684 Y40.29473
G01 X-96.71540 Y40.18596
G01 X-96.94161 Y40.12142
G01 X-97.16104 Y40.10260
G01 X-97.29353 Y40.11279
G01 X-97.52261 Y40.16615
G01 X-97.73628 Y40.26453
G01 X-97.92574 Y40.40387
G01 X-98.08329 Y40.57852
G01 X-98.20244 Y40.78131
G01 X-98.27834 Y41.00392
G01 X-98.30788 Y41.23730
G01 X-98.28984 Y41.47174
G01 X-98.22495 Y41.69787
G01 X-98.11588 Y41.90623
G01 X-97.96711 Y42.08840
G01 X-97.78474 Y42.23689
G01 X-97.57618 Y42.34565
G01 X-97.34997 Y42.41019
G01 X-97.13054 Y42.42901
G01 X-96.99805 Y42.41883
G01 X-96.76897 Y42.36546
G01 X-96.55530 Y42.26709
G01 X-96.36585 Y42.12774
G01 X-96.20829 Y41.95309
G01 X-96.08914 Y41.75030
G01 X-96.01324 Y41.52769
G01 X-95.98370 Y41.29432
G04 P0 ( dwell for no time -- G64 should not smooth over this point )
G00 Z5.00000 ( retract )

G00 X-95.98370 Y43.83432 ( rapid move to begin. )
G01 F60.00000
G01 Z-0.05000
G04 P0 ( dwell for no time -- G64 should not smooth over this point )
G01 F120.00000
G01 X-95.98370 Y43.83432
G01 X-96.00174 Y43.59988
G01 X-96.06663 Y43.37374
G01 X-96.17570 Y43.16538
G01 X-96.32447 Y42.98322
G01 X-96.50684 Y42.83473
G01 X-96.71540 Y42.72596
G01 X-96.94161 Y42.66142
G01 X-97.16104 Y42.64260
G01 X-97.29353 Y42.65279
G01 X-97.52261 Y42.70615
G01 X-97.73628 Y42.80453
G01 X-97.92574 Y42.94387
G01 X-98.08329 Y43.11852
G01 X-98.20244 Y43.32131
G01 X-98.27834 Y43.54392
G01 X-98.30788 Y43.77730
G01 X-98.28984 Y44.01174
G01 X-98.22495 Y44.23787
G01 X-98.11588 Y44.44623
G01 X-97.96711 Y44.62840
G01 X-97.78474 Y44.77689
G01 X-97.57618 Y44.88565
G01 X-97.34997 Y44.95019
G01 X-97.13054 Y44.96901
G01 X-96.99805 Y44.95883
G01 X-96.76897 Y44.90546
G01 X-96.55530 Y44.80709
G01 X-96.36585 Y44.66774
G01 X-96.20829 Y44.49309
G01 X-96.08914 Y44.29030
G01 X-96.01324 Y44.06769
G01 X-95.98370 Y43.83432
G04 P0 ( dwell for no time -- G64 should not smooth over this point )
G00 Z5.00000 ( retract )

G00 X-95.98370 Y46.37432 ( rapid move to begin. )
G01 F60.00000
G01 Z-0.05000
G04 P0 ( dwell for no time -- G64 should not smooth over this point )
G01 F120.00000
G01 X-95.98370 Y46.37432
G01 X-96.00174 Y46.13988
G01 X-96.06663 Y45.91374
G01 X-96.17570 Y45.70538
G01 X-96.32447 Y45.52322
G01 X-96.50684 Y45.37473
G01 X-96.71540 Y45.26596
G01 X-96.94161 Y45.20142
G01 X-97.16104 Y45.18260
G01 X-97.29353 Y45.19279
G01 X-97.52261 Y45.24615
G01 X-97.73628 Y45.34453
G01 X-97.92574 Y45.48387
G01 X-98.08329 Y45.65852
G01 X-98.20244 Y45.86131
G01 X-98.27834 Y46.08392
G01 X-98.30788 Y46.31730
G01 X-98.28984 Y46.55174
G01 X-98.22495 Y46.77787
G01 X-98.11588 Y46.98623
G01 X-97.96711 Y47.16840
G01 X-97.78474 Y47.31689
G01 X-97.57618 Y47.42565
G01 X-97.34997 Y47.49019
G01 X-97.13054 Y47.50901
G01 X-96.99805 Y47.49883
G01 X-96.76897 Y47.44546
G01 X-96.55530 Y47.34709
G01 X-96.36585 Y47.20774
G01 X-96.20829 Y47.03309
G01 X-96.08914 Y46.83030
G01 X-96.01324 Y46.60769
G01 X-95.98370 Y46.37432
G04 P0 ( dwell for no time -- G64 should not smooth over this point )
G00 Z5.00000 ( retract )

G00 X-95.98370 Y48.91432 ( rapid move to begin. )
G01 F60.00000
G01 Z-0.05000
G04 P0 ( dwell for no time -- G64 should not smooth over this point )
G01 F120.00000
G01 X-95.98370 Y48.91432
G01 X-96.01324 Y49.14769
G01 X-96.08914 Y49.37030
G01 X-96.20829 Y49.57309
G01 X-96.36585 Y49.74774
G01 X-96.55530 Y49.88709
G01 X-96.76897 Y49.98546
G01 X-96.99805 Y50.03883
G01 X-97.13054 Y50.04901
G01 X-97.34997 Y50.03019
G01 X-97.57618 Y49.96565
G01 X-97.78474 Y49.85689
G01 X-97.96711 Y49.70840
G01 X-98.11588 Y49.52623
G01 X-98.22495 Y49.31787
G01 X-98.28984 Y49.09174
G01 X-98.30788 Y48.85730
G01 X-98.27834 Y48.62392
G01 X-98.20244 Y48.40131
G01 X-98.08329 Y48.19852
G01 X-97.92574 Y48.02387
G01 X-97.73628 Y47.88453
G01 X-97.52261 Y47.78615
G01 X-97.29353 Y47.73279
G01 X-97.16104 Y47.72260
G01 X-96.94161 Y47.74142
G01 X-96.71540 Y47.80596
G01 X-96.50684 Y47.91473
G01 X-96.32447 Y48.06322
G01 X-96.17570 Y48.24538
G01 X-96.06663 Y48.45374
G01 X-96.00174 Y48.67988
G01 X-95.98370 Y48.91432
G04 P0 ( dwell for no time -- G64 should not smooth over this point )
G00 Z5.00000 ( retract )

G00 X-93.44370 Y46.37432 ( rapid move to begin. )
G01 F60.00000
G01 Z-0.05000
G04 P0 ( dwell for no time -- G64 should not smooth over this point )
G01 F120.00000
G01 X-93.44370 Y46.37432
G01 X-93.46174 Y46.13988
G01 X-93.52663 Y45.91374
G01 X-93.63570 Y45.70538
G01 X-93.78447 Y45.52322
G01 X-93.96684 Y45.37473
G01 X-94.17540 Y45.26596
G01 X-94.40161 Y45.20142
G01 X-94.62104 Y45.18260
G01 X-94.75353 Y45.19279
G01 X-94.98261 Y45.24615
G01 X-95.19628 Y45.34453
G01 X-95.38574 Y45.48387
G01 X-95.54329 Y45.65852
G01 X-95.66244 Y45.86131
G01 X-95.73834 Y46.08392
G01 X-95.76788 Y46.31730
G01 X-95.74984 Y46.55174
G01 X-95.68495 Y46.77787
G01 X-95.57588 Y46.98623
G01 X-95.42711 Y47.16840
G01 X-95.24474 Y47.31689
G01 X-95.03618 Y47.42565
G01 X-94.80997 Y47.49019
G01 X-94.59054 Y47.50901
G01 X-94.45805 Y47.49883
G01 X-94.22897 Y47.44546
G01 X-94.01530 Y47.34709
G01 X-93.82585 Y47.20774
G01 X-93.66829 Y47.03309
G01 X-93.54914 Y46.83030
G01 X-93.47324 Y46.60769
G01 X-93.44370 Y46.37432
G04 P0 ( dwell for no time -- G64 should not smooth over this point )
G00 Z5.00000 ( retract )

G00 X-93.44370 Y43.83432 ( rapid move to begin. )
G01 F60.00000
G01 Z-0.05000
G04 P0 ( dwell for no time -- G64 should not smooth over this point )
G01 F120.00000
G01 X-93.44370 Y43.83432
G01 X-93.46174 Y43.59988
G01 X-93.52663 Y43.37374
G01 X-93.63570 Y43.16538
G01 X-93.78447 Y42.98322
G01 X-93.96684 Y42.83473
G01 X-94.17540 Y42.72596
G01 X-94.40161 Y42.66142
G01 X-94.62104 Y42.64260
G01 X-94.75353 Y42.65279
G01 X-94.98261 Y42.70615
G01 X-95.19628 Y42.80453
G01 X-95.38574 Y42.94387
G01 X-95.54329 Y43.11852
G01 X-95.66244 Y43.32131
G01 X-95.73834 Y43.54392
G01 X-95.76788 Y43.77730
G01 X-95.74984 Y44.01174
G01 X-95.68495 Y44.23787
G01 X-95.57588 Y44.44623
G01 X-95.42711 Y44.62840
G01 X-95.24474 Y44.77689
G01 X-95.03618 Y44.88565
G01 X-94.80997 Y44.95019
G01 X-94.59054 Y44.96901
G01 X-94.45805 Y44.95883
G01 X-94.22897 Y44.90546
G01 X-94.01530 Y44.80709
G01 X-93.82585 Y44.66774
G01 X-93.66829 Y44.49309
G01 X-93.54914 Y44.29030
G01 X-93.47324 Y44.06769
G01 X-93.44370 Y43.83432
G04 P0 ( dwell for no time -- G64 should not smooth over this point )
G00 Z5.00000 ( retract )

G00 X-93.44370 Y41.29432 ( rapid move to begin. )
G01 F60.00000
G01 Z-0.05000
G04 P0 ( dwell for no time -- G64 should not smooth over this point )
G01 F120.00000
G01 X-93.44370 Y41.29432
G01 X-93.46174 Y41.05988
G01 X-93.52663 Y40.83374
G01 X-93.63570 Y40.62538
G01 X-93.78447 Y40.44322
G01 X-93.96684 Y40.29473
G01 X-94.17540 Y40.18596
G01 X-94.40161 Y40.12142
G01 X-94.62104 Y40.10260
G01 X-94.75353 Y40.11279
G01 X-94.98261 Y40.16615
G01 X-95.19628 Y40.26453
G01 X-95.38574 Y40.40387
G01 X-95.54329 Y40.57852
G01 X-95.66244 Y40.78131
G01 X-95.73834 Y41.00392
G01 X-95.76788 Y41.23730
G01 X-95.74984 Y41.47174
G01 X-95.68495 Y41.69787
G01 X-95.57588 Y41.90623
G01 X-95.42711 Y42.08840
G01 X-95.24474 Y42.23689
G01 X-95.03618 Y42.34565
G01 X-94.80997 Y42.41019
G01 X-94.59054 Y42.42901
G01 X-94.45805 Y42.41883
G01 X-94.22897 Y42.36546
G01 X-94.01530 Y42.26709
G01 X-93.82585 Y42.12774
G01 X-93.66829 Y41.95309
G01 X-93.54914 Y41.75030
G01 X-93.47324 Y41.52769
G01 X-93.44370 Y41.29432
G04 P0 ( dwell for no time -- G64 should not smooth over this point )
G00 Z5.00000 ( retract )

G00 X-93.44370 Y38.75432 ( rapid move to begin. )
G01 F60.00000
G01 Z-0.05000
G04 P0 ( dwell for no time -- G64 should not smooth over this point )
G01 F120.00000
G01 X-93.44370 Y38.75432
G01 X-93.46174 Y38.51988
G01 X-93.52663 Y38.29374
G01 X-93.63570 Y38.08538
G01 X-93.78447 Y37.90322
G01 X-93.96684 Y37.75473
G01 X-94.17540 Y37.64596
G01 X-94.40161 Y37.58142
G01 X-94.62104 Y37.56260
G01 X-94.75353 Y37.57279
G01 X-94.98261 Y37.62615
G01 X-95.19628 Y37.72453
G01 X-95.38574 Y37.86387
G01 X-95.54329 Y38.03852
G01 X-95.66244 Y38.24131
G01 X-95.73834 Y38.46392
G01 X-95.76788 Y38.69730
G01 X-95.74984 Y38.93174
G01 X-95.68495 Y39.15787
G01 X-95.57588 Y39.36623
G01 X-95.42711 Y39.54840
G01 X-95.24474 Y39.69689
G01 X-95.03618 Y39.80565
G01 X-94.80997 Y39.87019
G01 X-94.59054 Y39.88901
G01 X-94.45805 Y39.87883
G01 X-94.22897 Y39.82546
G01 X-94.01530 Y39.72709
G01 X-93.82585 Y39.58774
G01 X-93.66829 Y39.41309
G01 X-93.54914 Y39.21030
G01 X-93.47324 Y38.98769
G01 X-93.44370 Y38.75432
G04 P0 ( dwell for no time -- G64 should not smooth over this point )
G00 Z5.00000 ( retract )

G00 X-93.44370 Y36.21432 ( rapid move to begin. )
G01 F60.00000
G01 Z-0.05000
G04 P0 ( dwell for no time -- G64 should not smooth over this point )
G01 F120.00000
G01 X-93.44370 Y36.21432
G01 X-93.46174 Y35.97988
G01 X-93.52663 Y35.75374
G01 X-93.63570 Y35.54538
G01 X-93.78447 Y35.36322
G01 X-93.96684 Y35.21473
G01 X-94.17540 Y35.10596
G01 X-94.40161 Y35.04142
G01 X-94.62104 Y35.02260
G01 X-94.75353 Y35.03279
G01 X-94.98261 Y35.08615
G01 X-95.19628 Y35.18453
G01 X-95.38574 Y35.32387
G01 X-95.54329 Y35.49852
G01 X-95.66244 Y35.70131
G01 X-95.73834 Y35.92392
G01 X-95.76788 Y36.15730
G01 X-95.74984 Y36.39174
G01 X-95.68495 Y36.61787
G01 X-95.57588 Y36.82623
G01 X-95.42711 Y37.00840
G01 X-95.24474 Y37.15689
G01 X-95.03618 Y37.26565
G01 X-94.80997 Y37.33019
G01 X-94.59054 Y37.34901
G01 X-94.45805 Y37.33883
G01 X-94.22897 Y37.28546
G01 X-94.01530 Y37.18709
G01 X-93.82585 Y37.04774
G01 X-93.66829 Y36.87309
G01 X-93.54914 Y36.67030
G01 X-93.47324 Y36.44769
G01 X-93.44370 Y36.21432
G04 P0 ( dwell for no time -- G64 should not smooth over this point )
G00 Z5.00000 ( retract )

G00 X-93.44370 Y33.67432 ( rapid move to begin. )
G01 F60.00000
G01 Z-0.05000
G04 P0 ( dwell for no time -- G64 should not smooth over this point )
G01 F120.00000
G01 X-93.44370 Y33.67432
G01 X-93.46174 Y33.43988
G01 X-93.52663 Y33.21374
G01 X-93.63570 Y33.00538
G01 X-93.78447 Y32.82322
G01 X-93.96684 Y32.67473
G01 X-94.17540 Y32.56596
G01 X-94.40161 Y32.50142
G01 X-94.62104 Y32.48260
G01 X-94.75353 Y32.49279
G01 X-94.98261 Y32.54615
G01 X-95.19628 Y32.64453
G01 X-95.38574 Y32.78387
G01 X-95.54329 Y32.95852
G01 X-95.66244 Y33.16131
G01 X-95.73834 Y33.38392
G01 X-95.76788 Y33.61730
G01 X-95.74984 Y33.85174
G01 X-95.68495 Y34.07787
G01 X-95.57588 Y34.28623
G01 X-95.42711 Y34.46840
G01 X-95.24474 Y34.61689
G01 X-95.03618 Y34.72565
G01 X-94.80997 Y34.79019
G01 X-94.59054 Y34.80901
G01 X-94.45805 Y34.79883
G01 X-94.22897 Y34.74546
G01 X-94.01530 Y34.64709
G01 X-93.82585 Y34.50774
G01 X-93.66829 Y34.33309
G01 X-93.54914 Y34.13030
G01 X-93.47324 Y33.90769
G01 X-93.44370 Y33.67432
G04 P0 ( dwell for no time -- G64 should not smooth over this point )
G00 Z5.00000 ( retract )

G00 X-93.44370 Y31.13432 ( rapid move to begin. )
G01 F60.00000
G01 Z-0.05000
G04 P0 ( dwell for no time -- G64 should not smooth over this point )
G01 F120.00000
G01 X-93.44370 Y31.13432
G01 X-93.46174 Y30.89988
G01 X-93.52663 Y30.67374
G01 X-93.63570 Y30.46538
G01 X-93.78447 Y30.28322
G01 X-93.96684 Y30.13473
G01 X-94.17540 Y30.02596
G01 X-94.40161 Y29.96142
G01 X-94.62104 Y29.94260
G01 X-94.75353 Y29.95279
G01 X-94.98261 Y30.00615
G01 X-95.19628 Y30.10453
G01 X-95.38574 Y30.24387
G01 X-95.54329 Y30.41852
G01 X-95.66244 Y30.62131
G01 X-95.73834 Y30.84392
G01 X-95.76788 Y31.07730
G01 X-95.74984 Y31.31174
G01 X-95.68495 Y31.53787
G01 X-95.57588 Y31.74623
G01 X-95.42711 Y31.92840
G01 X-95.24474 Y32.07689
G01 X-95.03618 Y32.18565
G01 X-94.80997 Y32.25019
G01 X-94.59054 Y32.26901
G01 X-94.45805 Y32.25883
G01 X-94.22897 Y32.20546
G01 X-94.01530 Y32.10709
G01 X-93.82585 Y31.96774
G01 X-93.66829 Y31.79309
G01 X-93.54914 Y31.59030
G01 X-93.47324 Y31.36769
G01 X-93.44370 Y31.13432
G04 P0 ( dwell for no time -- G64 should not smooth over this point )
G00 Z5.00000 ( retract )

G00 X-93.44370 Y28.59432 ( rapid move to begin. )
G01 F60.00000
G01 Z-0.05000
G04 P0 ( dwell for no time -- G64 should not smooth over this point )
G01 F120.00000
G01 X-93.44370 Y28.59432
G01 X-93.46174 Y28.35988
G01 X-93.52663 Y28.13374
G01 X-93.63570 Y27.92538
G01 X-93.78447 Y27.74322
G01 X-93.96684 Y27.59473
G01 X-94.17540 Y27.48596
G01 X-94.40161 Y27.42142
G01 X-94.62104 Y27.40260
G01 X-94.75353 Y27.41279
G01 X-94.98261 Y27.46615
G01 X-95.19628 Y27.56453
G01 X-95.38574 Y27.70387
G01 X-95.54329 Y27.87852
G01 X-95.66244 Y28.08131
G01 X-95.73834 Y28.30392
G01 X-95.76788 Y28.53730
G01 X-95.74984 Y28.77174
G01 X-95.68495 Y28.99787
G01 X-95.57588 Y29.20623
G01 X-95.42711 Y29.38840
G01 X-95.24474 Y29.53689
G01 X-95.03618 Y29.64565
G01 X-94.80997 Y29.71019
G01 X-94.59054 Y29.72901
G01 X-94.45805 Y29.71883
G01 X-94.22897 Y29.66546
G01 X-94.01530 Y29.56709
G01 X-93.82585 Y29.42774
G01 X-93.66829 Y29.25309
G01 X-93.54914 Y29.05030
G01 X-93.47324 Y28.82769
G01 X-93.44370 Y28.59432
G04 P0 ( dwell for no time -- G64 should not smooth over this point )
G00 Z5.00000 ( retract )

G00 X-93.44370 Y26.05432 ( rapid move to begin. )
G01 F60.00000
G01 Z-0.05000
G04 P0 ( dwell for no time -- G64 should not smooth over this point )
G01 F120.00000
G01 X-93.44370 Y26.05432
G01 X-93.46174 Y25.81988
G01 X-93.52663 Y25.59374
G01 X-93.63570 Y25.38538
G01 X-93.78447 Y25.20322
G01 X-93.96684 Y25.05473
G01 X-94.17540 Y24.94596
G01 X-94.40161 Y24.88142
G01 X-94.62104 Y24.86260
G01 X-94.75353 Y24.87279
G01 X-94.98261 Y24.92615
G01 X-95.19628 Y25.02453
G01 X-95.38574 Y25.16387
G01 X-95.54329 Y25.33852
G01 X-95.66244 Y25.54131
G01 X-95.73834 Y25.76392
G01 X-95.76788 Y25.99730
G01 X-95.74984 Y26.23174
G01 X-95.68495 Y26.45787
G01 X-95.57588 Y26.66623
G01 X-95.42711 Y26.84840
G01 X-95.24474 Y26.99689
G01 X-95.03618 Y27.10565
G01 X-94.80997 Y27.17019
G01 X-94.59054 Y27.18901
G01 X-94.45805 Y27.17883
G01 X-94.22897 Y27.12546
G01 X-94.01530 Y27.02709
G01 X-93.82585 Y26.88774
G01 X-93.66829 Y26.71309
G01 X-93.54914 Y26.51030
G01 X-93.47324 Y26.28769
G01 X-93.44370 Y26.05432
G04 P0 ( dwell for no time -- G64 should not smooth over this point )
G00 Z5.00000 ( retract )

G00 X-93.44370 Y23.51432 ( rapid move to begin. )
G01 F60.00000
G01 Z-0.05000
G04 P0 ( dwell for no time -- G64 should not smooth over this point )
G01 F120.00000
G01 X-93.44370 Y23.51432
G01 X-93.46174 Y23.27988
G01 X-93.52663 Y23.05374
G01 X-93.63570 Y22.84538
G01 X-93.78447 Y22.66322
G01 X-93.96684 Y22.51473
G01 X-94.17540 Y22.40596
G01 X-94.40161 Y22.34142
G01 X-94.62104 Y22.32260
G01 X-94.75353 Y22.33279
G01 X-94.98261 Y22.38615
G01 X-95.19628 Y22.48453
G01 X-95.38574 Y22.62387
G01 X-95.54329 Y22.79852
G01 X-95.66244 Y23.00131
G01 X-95.73834 Y23.22392
G01 X-95.76788 Y23.45730
G01 X-95.74984 Y23.69174
G01 X-95.68495 Y23.91787
G01 X-95.57588 Y24.12623
G01 X-95.42711 Y24.30840
G01 X-95.24474 Y24.45689
G01 X-95.03618 Y24.56565
G01 X-94.80997 Y24.63019
G01 X-94.59054 Y24.64901
G01 X-94.45805 Y24.63883
G01 X-94.22897 Y24.58546
G01 X-94.01530 Y24.48709
G01 X-93.82585 Y24.34774
G01 X-93.66829 Y24.17309
G01 X-93.54914 Y23.97030
G01 X-93.47324 Y23.74769
G01 X-93.44370 Y23.51432
G04 P0 ( dwell for no time -- G64 should not smooth over this point )
G00 Z5.00000 ( retract )

G00 X-93.44370 Y20.97432 ( rapid move to begin. )
G01 F60.00000
G01 Z-0.05000
G04 P0 ( dwell for no time -- G64 should not smooth over this point )
G01 F120.00000
G01 X-93.44370 Y20.97432
G01 X-93.46174 Y20.73988
G01 X-93.52663 Y20.51374
G01 X-93.63570 Y20.30538
G01 X-93.78447 Y20.12322
G01 X-93.96684 Y19.97473
G01 X-94.17540 Y19.86596
G01 X-94.40161 Y19.80142
G01 X-94.62104 Y19.78260
G01 X-94.75353 Y19.79279
G01 X-94.98261 Y19.84615
G01 X-95.19628 Y19.94453
G01 X-95.38574 Y20.08387
G01 X-95.54329 Y20.25852
G01 X-95.66244 Y20.46131
G01 X-95.73834 Y20.68392
G01 X-95.76788 Y20.91730
G01 X-95.74984 Y21.15174
G01 X-95.68495 Y21.37787
G01 X-95.57588 Y21.58623
G01 X-95.42711 Y21.76840
G01 X-95.24474 Y21.91689
G01 X-95.03618 Y22.02565
G01 X-94.80997 Y22.09019
G01 X-94.59054 Y22.10901
G01 X-94.45805 Y22.09883
G01 X-94.22897 Y22.04546
G01 X-94.01530 Y21.94709
G01 X-93.82585 Y21.80774
G01 X-93.66829 Y21.63309
G01 X-93.54914 Y21.43030
G01 X-93.47324 Y21.20769
G01 X-93.44370 Y20.97432
G04 P0 ( dwell for no time -- G64 should not smooth over this point )
G00 Z5.00000 ( retract )

G00 X-93.44370 Y18.43432 ( rapid move to begin. )
G01 F60.00000
G01 Z-0.05000
G04 P0 ( dwell for no time -- G64 should not smooth over this point )
G01 F120.00000
G01 X-93.44370 Y18.43432
G01 X-93.46174 Y18.19988
G01 X-93.52663 Y17.97374
G01 X-93.63570 Y17.76538
G01 X-93.78447 Y17.58322
G01 X-93.96684 Y17.43473
G01 X-94.17540 Y17.32596
G01 X-94.40161 Y17.26142
G01 X-94.62104 Y17.24260
G01 X-94.75353 Y17.25279
G01 X-94.98261 Y17.30615
G01 X-95.19628 Y17.40453
G01 X-95.38574 Y17.54387
G01 X-95.54329 Y17.71852
G01 X-95.66244 Y17.92131
G01 X-95.73834 Y18.14392
G01 X-95.76788 Y18.37730
G01 X-95.74984 Y18.61174
G01 X-95.68495 Y18.83787
G01 X-95.57588 Y19.04623
G01 X-95.42711 Y19.22840
G01 X-95.24474 Y19.37689
G01 X-95.03618 Y19.48565
G01 X-94.80997 Y19.55019
G01 X-94.59054 Y19.56901
G01 X-94.45805 Y19.55883
G01 X-94.22897 Y19.50546
G01 X-94.01530 Y19.40709
G01 X-93.82585 Y19.26774
G01 X-93.66829 Y19.09309
G01 X-93.54914 Y18.89030
G01 X-93.47324 Y18.66769
G01 X-93.44370 Y18.43432
G04 P0 ( dwell for no time -- G64 should not smooth over this point )
G00 Z5.00000 ( retract )

G00 X-84.10781 Y8.32027 ( rapid move to begin. )
G01 F60.00000
G01 Z-0.05000
G04 P0 ( dwell for no time -- G64 should not smooth over this point )
G01 F120.00000
G01 X-84.10781 Y8.32027
G01 X-84.10781 Y14.01975
G01 X-84.06800 Y14.19790
G01 X-84.05929 Y14.36963
G01 X-84.10361 Y14.65899
G01 X-84.16333 Y14.82028
G01 X-84.28108 Y15.02079
G01 X-84.48276 Y15.23295
G01 X-84.67699 Y15.36069
G01 X-84.83506 Y15.42851
G01 X-85.06142 Y15.48129
G01 X-85.23818 Y15.49026
G01 X-85.40928 Y15.47283
G01 X-85.63275 Y15.40915
G01 X-85.88875 Y15.26707
G01 X-86.06107 Y15.11106
G01 X-86.16635 Y14.97507
G01 X-86.27420 Y14.76910
G01 X-86.33838 Y14.54573
G01 X-86.35322 Y14.25333
G01 X-86.30780 Y14.01335
G01 X-86.30780 Y8.31387
G01 X-86.34758 Y8.13571
G01 X-86.35629 Y7.96398
G01 X-86.31197 Y7.67462
G01 X-86.22548 Y7.45878
G01 X-86.09736 Y7.26485
G01 X-85.97887 Y7.14018
G01 X-85.79167 Y7.00241
G01 X-85.58052 Y6.90511
G01 X-85.35416 Y6.85233
G01 X-85.22302 Y6.84222
G01 X-85.00630 Y6.86078
G01 X-84.78284 Y6.92446
G01 X-84.57664 Y7.03188
G01 X-84.39632 Y7.17859
G01 X-84.24923 Y7.35855
G01 X-84.14138 Y7.56452
G01 X-84.07720 Y7.78788
G01 X-84.05929 Y8.01963
G01 X-84.10781 Y8.32027
G01 X-83.79838 Y8.19573
G01 X-83.81322 Y7.90333
G01 X-83.77197 Y7.67462
G01 X-83.71225 Y7.51333
G01 X-83.55736 Y7.26485
G01 X-83.39282 Y7.10066
G01 X-83.19859 Y6.97292
G01 X-82.98261 Y6.88695
G01 X-82.68302 Y6.84222
G01 X-82.40692 Y6.87300
G01 X-82.18701 Y6.94841
G01 X-82.03664 Y7.03188
G01 X-81.85632 Y7.17859
G01 X-81.70923 Y7.35855
G01 X-81.58033 Y7.62139
G01 X-81.53720 Y7.78788
G01 X-81.51929 Y8.01963
G01 X-81.56781 Y8.32027
G01 X-81.56781 Y14.01975
G01 X-81.52800 Y14.19790
G01 X-81.52236 Y14.43029
G01 X-81.56361 Y14.65899
G01 X-81.62333 Y14.82028
G01 X-81.77822 Y15.06877
G01 X-81.89671 Y15.19343
G01 X-82.08391 Y15.33120
G01 X-82.35297 Y15.44667
G01 X-82.65256 Y15.49140
G01 X-82.86928 Y15.47283
G01 X-83.09275 Y15.40915
G01 X-83.29894 Y15.30174
G01 X-83.47926 Y15.15503
G01 X-83.62635 Y14.97507
G01 X-83.73420 Y14.76910
G01 X-83.79838 Y14.54573
G01 X-83.81322 Y14.25333
G01 X-83.76780 Y14.01335
G01 X-83.76780 Y8.31387
G01 X-83.79838 Y8.19573
G04 P0 ( dwell for no time -- G64 should not smooth over this point )
G00 Z5.00000 ( retract )

G00 X-78.97929 Y8.01963 ( rapid move to begin. )
G01 F60.00000
G01 Z-0.05000
G04 P0 ( dwell for no time -- G64 should not smooth over this point )
G01 F120.00000
G01 X-78.97929 Y8.01963
G01 X-78.99720 Y7.78788
G01 X-79.06138 Y7.56452
G01 X-79.16923 Y7.35855
G01 X-79.27452 Y7.22256
G01 X-79.44683 Y7.06655
G01 X-79.64701 Y6.94841
G01 X-79.92630 Y6.86078
G01 X-80.14302 Y6.84222
G01 X-80.27416 Y6.85233
G01 X-80.50052 Y6.90511
G01 X-80.71167 Y7.00241
G01 X-80.89887 Y7.14018
G01 X-81.05450 Y7.31283
G01 X-81.17225 Y7.51333
G01 X-81.24716 Y7.73332
G01 X-81.27629 Y7.96398
G01 X-81.26758 Y8.13571
G01 X-81.22780 Y8.31387
G01 X-81.22780 Y14.01335
G01 X-81.27322 Y14.25333
G01 X-81.26758 Y14.48571
G01 X-81.19420 Y14.76910
G01 X-81.08635 Y14.97507
G01 X-80.98107 Y15.11106
G01 X-80.80875 Y15.26707
G01 X-80.60857 Y15.38520
G01 X-80.32928 Y15.47283
G01 X-80.11256 Y15.49140
G01 X-79.98142 Y15.48129
G01 X-79.75506 Y15.42851
G01 X-79.54391 Y15.33120
G01 X-79.35671 Y15.19343
G01 X-79.20108 Y15.02079
G01 X-79.08333 Y14.82028
G01 X-79.00843 Y14.60029
G01 X-78.97929 Y14.36963
G01 X-78.98800 Y14.19790
G01 X-79.02781 Y14.01975
G01 X-79.02781 Y8.32027
G01 X-78.97929 Y8.01963
G04 P0 ( dwell for no time -- G64 should not smooth over this point )
G00 Z5.00000 ( retract )

G00 X-76.43929 Y8.01963 ( rapid move to begin. )
G01 F60.00000
G01 Z-0.05000
G04 P0 ( dwell for no time -- G64 should not smooth over this point )
G01 F120.00000
G01 X-76.43929 Y8.01963
G01 X-76.45720 Y7.78788
G01 X-76.52138 Y7.56452
G01 X-76.62923 Y7.35855
G01 X-76.73452 Y7.22256
G01 X-76.90683 Y7.06655
G01 X-77.10701 Y6.94841
G01 X-77.38630 Y6.86078
G01 X-77.60302 Y6.84222
G01 X-77.73416 Y6.85233
G01 X-77.96052 Y6.90511
G01 X-78.17167 Y7.00241
G01 X-78.35887 Y7.14018
G01 X-78.51450 Y7.31283
G01 X-78.63225 Y7.51333
G01 X-78.70716 Y7.73332
G01 X-78.73629 Y7.96398
G01 X-78.72758 Y8.13571
G01 X-78.68780 Y8.31387
G01 X-78.68780 Y14.01335
G01 X-78.73322 Y14.25333
G01 X-78.72758 Y14.48571
G01 X-78.65420 Y14.76910
G01 X-78.54635 Y14.97507
G01 X-78.44107 Y15.11106
G01 X-78.26875 Y15.26707
G01 X-78.06857 Y15.38520
G01 X-77.78928 Y15.47283
G01 X-77.57256 Y15.49140
G01 X-77.44142 Y15.48129
G01 X-77.21506 Y15.42851
G01 X-77.00391 Y15.33120
G01 X-76.81671 Y15.19343
G01 X-76.66108 Y15.02079
G01 X-76.54333 Y14.82028
G01 X-76.46843 Y14.60029
G01 X-76.43929 Y14.36963
G01 X-76.44800 Y14.19790
G01 X-76.48781 Y14.01975
G01 X-76.48781 Y8.32027
G01 X-76.43929 Y8.01963
G04 P0 ( dwell for no time -- G64 should not smooth over this point )
G00 Z5.00000 ( retract )

G00 X-73.89929 Y8.01963 ( rapid move to begin. )
G01 F60.00000
G01 Z-0.05000
G04 P0 ( dwell for no time -- G64 should not smooth over this point )
G01 F120.00000
G01 X-73.89929 Y8.01963
G01 X-73.91720 Y7.78788
G01 X-73.98138 Y7.56452
G01 X-74.08923 Y7.35855
G01 X-74.19452 Y7.22256
G01 X-74.36683 Y7.06655
G01 X-74.56701 Y6.94841
G01 X-74.84630 Y6.86078
G01 X-75.06302 Y6.84222
G01 X-75.19416 Y6.85233
G01 X-75.42052 Y6.90511
G01 X-75.63167 Y7.00241
G01 X-75.81887 Y7.14018
G01 X-75.97450 Y7.31283
G01 X-76.09225 Y7.51333
G01 X-76.16716 Y7.73332
G01 X-76.19629 Y7.96398
G01 X-76.18758 Y8.13571
G01 X-76.14780 Y8.31387
G01 X-76.14780 Y14.01335
G01 X-76.19322 Y14.25333
G01 X-76.18758 Y14.48571
G01 X-76.11420 Y14.76910
G01 X-76.00635 Y14.97507
G01 X-75.90107 Y15.11106
G01 X-75.72875 Y15.26707
G01 X-75.52857 Y15.38520
G01 X-75.24928 Y15.47283
G01 X-75.03256 Y15.49140
G01 X-74.90142 Y15.48129
G01 X-74.67506 Y15.42851
G01 X-74.46391 Y15.33120
G01 X-74.27671 Y15.19343
G01 X-74.12108 Y15.02079
G01 X-74.00333 Y14.82028
G01 X-73.92843 Y14.60029
G01 X-73.89929 Y14.36963
G01 X-73.90800 Y14.19790
G01 X-73.94781 Y14.01975
G01 X-73.94781 Y8.32027
G01 X-73.89929 Y8.01963
G04 P0 ( dwell for no time -- G64 should not smooth over this point )
G00 Z5.00000 ( retract )

G00 X-71.35782 Y7.14181 ( rapid move to begin. )
G01 F60.00000
G01 Z-0.05000
G04 P0 ( dwell for no time -- G64 should not smooth over this point )
G01 F120.00000
G01 X-71.35782 Y7.14181
G01 X-71.38065 Y7.02703
G01 X-71.44568 Y6.92969
G01 X-71.54301 Y6.86467
G01 X-71.65782 Y6.84181
G01 X-73.41631 Y6.84758
G01 X-73.52444 Y6.89238
G01 X-73.56990 Y6.92969
G01 X-73.60722 Y6.97516
G01 X-73.65202 Y7.08329
G01 X-73.65779 Y8.84178
G01 X-73.65202 Y8.90033
G01 X-73.60780 Y9.00739
G01 X-73.60780 Y13.32623
G01 X-73.65202 Y13.43329
G01 X-73.65779 Y13.49181
G01 X-73.65779 Y15.19178
G01 X-73.65202 Y15.25033
G01 X-73.60722 Y15.35845
G01 X-73.52444 Y15.44123
G01 X-73.41631 Y15.48604
G01 X-71.59927 Y15.48604
G01 X-71.49114 Y15.44123
G01 X-71.44568 Y15.40392
G01 X-71.40836 Y15.35845
G01 X-71.36356 Y15.25033
G01 X-71.35782 Y13.49181
G01 X-71.36356 Y13.43329
G01 X-71.40778 Y13.32623
G01 X-71.40778 Y9.00739
G01 X-71.36356 Y8.90033
G01 X-71.35782 Y8.84178
G01 X-71.35782 Y7.14181
G04 P0 ( dwell for no time -- G64 should not smooth over this point )
G00 Z5.00000 ( retract )

G00 X-59.97781 Y15.28975 ( rapid move to begin. )
G01 F60.00000
G01 Z-0.05000
G04 P0 ( dwell for no time -- G64 should not smooth over this point )
G01 F120.00000
G01 X-59.97781 Y15.28975
G01 X-59.98659 Y5.31555
G01 X-60.42281 Y3.32838
G01 X-60.43277 Y2.86567
G01 X-60.46795 Y2.69450
G01 X-60.55505 Y2.47601
G01 X-60.72385 Y2.23346
G01 X-60.85050 Y2.11307
G01 X-61.04679 Y1.98348
G01 X-61.32390 Y1.88086
G01 X-61.49662 Y1.85439
G01 X-61.73178 Y1.86018
G01 X-61.96088 Y1.91314
G01 X-62.17473 Y2.01121
G01 X-62.40838 Y2.19209
G01 X-62.55687 Y2.37446
G01 X-62.66563 Y2.58302
G01 X-62.73017 Y2.80923
G01 X-62.74938 Y3.01680
G01 X-62.74493 Y3.40895
G01 X-62.68545 Y3.69503
G01 X-62.61654 Y3.85561
G01 X-62.52896 Y3.99218
G01 X-62.17780 Y5.57257
G01 X-62.17780 Y15.28335
G01 X-62.22322 Y15.52333
G01 X-62.21758 Y15.75571
G01 X-62.14420 Y16.03910
G01 X-62.03635 Y16.24507
G01 X-61.93107 Y16.38106
G01 X-61.75875 Y16.53707
G01 X-61.50275 Y16.67915
G01 X-61.27928 Y16.74283
G01 X-61.06256 Y16.76140
G01 X-60.93142 Y16.75129
G01 X-60.70506 Y16.69851
G01 X-60.54699 Y16.63069
G01 X-60.30671 Y16.46343
G01 X-60.18822 Y16.33877
G01 X-60.06010 Y16.14484
G01 X-59.97361 Y15.92899
G01 X-59.92929 Y15.63963
G01 X-59.93800 Y15.46790
G01 X-59.97781 Y15.28975
G01 X-59.65716 Y15.35332
G01 X-59.68629 Y15.58398
G01 X-59.66838 Y15.81573
G01 X-59.60420 Y16.03910
G01 X-59.52848 Y16.19351
G01 X-59.39107 Y16.38106
G01 X-59.16894 Y16.57174
G01 X-59.01857 Y16.65520
G01 X-58.79866 Y16.73061
G01 X-58.56818 Y16.76026
G01 X-58.39142 Y16.75129
G01 X-58.16506 Y16.69851
G01 X-57.95391 Y16.60120
G01 X-57.76671 Y16.46343
G01 X-57.64822 Y16.33877
G01 X-57.52010 Y16.14484
G01 X-57.43361 Y15.92899
G01 X-57.38929 Y15.63963
G01 X-57.39800 Y15.46790
G01 X-57.43781 Y15.28975
G01 X-57.44659 Y5.31555
G01 X-57.88281 Y3.32838
G01 X-57.88665 Y2.92267
G01 X-57.92795 Y2.69450
G01 X-58.04451 Y2.42292
G01 X-58.18385 Y2.23346
G01 X-58.35850 Y2.07591
G01 X-58.56130 Y1.95675
G01 X-58.78390 Y1.88086
G01 X-59.01728 Y1.85132
G01 X-59.25172 Y1.86935
G01 X-59.47786 Y1.93425
G01 X-59.68621 Y2.04332
G01 X-59.86838 Y2.19209
G01 X-59.98220 Y2.32465
G01 X-60.10168 Y2.52724
G01 X-60.17796 Y2.74974
G01 X-60.20938 Y3.01680
G01 X-60.20493 Y3.40895
G01 X-60.16363 Y3.63712
G01 X-60.07654 Y3.85561
G01 X-59.98896 Y3.99218
G01 X-59.63780 Y5.57257
G01 X-59.63780 Y15.28335
G01 X-59.65716 Y15.35332
G04 P0 ( dwell for no time -- G64 should not smooth over this point )
G00 Z5.00000 ( retract )

G00 X-52.15781 Y21.96179 ( rapid move to begin. )
G01 F60.00000
G01 Z-0.05000
G04 P0 ( dwell for no time -- G64 should not smooth over this point )
G01 F120.00000
G01 X-52.15781 Y21.96179
G01 X-52.19433 Y21.66121
G01 X-52.27020 Y21.43304
G01 X-52.35781 Y21.27805
G01 X-52.35778 Y18.48029
G01 X-52.31236 Y18.24031
G01 X-52.32720 Y17.94791
G01 X-52.39138 Y17.72454
G01 X-52.49923 Y17.51857
G01 X-52.60452 Y17.38258
G01 X-52.77683 Y17.22657
G01 X-52.97701 Y17.10844
G01 X-53.19692 Y17.03303
G01 X-53.47302 Y17.00224
G01 X-53.60416 Y17.01235
G01 X-53.78810 Y17.05185
G01 X-55.67695 Y17.05182
G01 X-55.79630 Y17.02081
G01 X-56.01302 Y17.00224
G01 X-56.14416 Y17.01235
G01 X-56.32810 Y17.05185
G01 X-58.21695 Y17.05182
G01 X-58.33630 Y17.02081
G01 X-58.55302 Y17.00224
G01 X-58.68416 Y17.01235
G01 X-58.86810 Y17.05185
G01 X-60.75695 Y17.05182
G01 X-60.87630 Y17.02081
G01 X-61.17900 Y17.00661
G01 X-61.45052 Y17.06513
G01 X-61.60859 Y17.13295
G01 X-61.80282 Y17.26069
G01 X-61.96736 Y17.42487
G01 X-62.12225 Y17.67336
G01 X-62.19716 Y17.89335
G01 X-62.22629 Y18.12401
G01 X-62.20838 Y18.35576
G01 X-62.14420 Y18.57912
G01 X-62.06848 Y18.73353
G01 X-61.93107 Y18.92108
G01 X-61.75875 Y19.07709
G01 X-61.55857 Y19.19523
G01 X-61.33866 Y19.27064
G01 X-61.06256 Y19.30142
G01 X-60.93142 Y19.29131
G01 X-60.74748 Y19.25182
G01 X-58.85863 Y19.25184
G01 X-58.73928 Y19.28286
G01 X-58.52256 Y19.30142
G01 X-58.39142 Y19.29131
G01 X-58.20748 Y19.25182
G01 X-56.31863 Y19.25184
G01 X-56.19928 Y19.28286
G01 X-55.98256 Y19.30142
G01 X-55.85142 Y19.29131
G01 X-55.66748 Y19.25182
G01 X-54.55780 Y19.25182
G01 X-54.55778 Y21.27805
G01 X-54.64538 Y21.43304
G01 X-54.73428 Y21.72253
G01 X-54.75780 Y21.96179
G01 X-54.73428 Y22.20109
G01 X-54.64538 Y22.49057
G01 X-54.48973 Y22.75034
G01 X-54.34985 Y22.90568
G01 X-54.13410 Y23.07053
G01 X-53.88882 Y23.18691
G01 X-53.62468 Y23.24975
G01 X-53.29090 Y23.24975
G01 X-53.02679 Y23.18691
G01 X-52.78145 Y23.07050
G01 X-52.56573 Y22.90568
G01 X-52.42585 Y22.75034
G01 X-52.28445 Y22.51856
G01 X-52.19433 Y22.26240
G01 X-52.15781 Y21.96179
G04 P0 ( dwell for no time -- G64 should not smooth over this point )
G00 Z5.00000 ( retract )

G00 X-49.76929 Y18.17966 ( rapid move to begin. )
G01 F60.00000
G01 Z-0.05000
G04 P0 ( dwell for no time -- G64 should not smooth over this point )
G01 F120.00000
G01 X-49.76929 Y18.17966
G01 X-49.78720 Y17.94791
G01 X-49.83033 Y17.78141
G01 X-49.95923 Y17.51857
G01 X-50.10632 Y17.33861
G01 X-50.28664 Y17.19190
G01 X-50.43701 Y17.10844
G01 X-50.65692 Y17.03303
G01 X-50.88740 Y17.00338
G01 X-51.01900 Y17.00661
G01 X-51.23261 Y17.04697
G01 X-51.44859 Y17.13295
G01 X-51.68887 Y17.30021
G01 X-51.84450 Y17.47285
G01 X-51.96225 Y17.67336
G01 X-52.03716 Y17.89335
G01 X-52.06629 Y18.12401
G01 X-52.05758 Y18.29574
G01 X-52.01780 Y18.47389
G01 X-52.01780 Y23.40180
G01 X-62.51781 Y23.40180
G01 X-62.52659 Y5.31555
G01 X-62.96281 Y3.32841
G01 X-62.96665 Y2.92267
G01 X-63.00795 Y2.69450
G01 X-63.09505 Y2.47601
G01 X-63.22433 Y2.27951
G01 X-63.39050 Y2.11307
G01 X-63.58679 Y1.98348
G01 X-63.80515 Y1.89607
G01 X-64.03662 Y1.85439
G01 X-64.27178 Y1.86018
G01 X-64.50088 Y1.91314
G01 X-64.71473 Y2.01121
G01 X-64.90439 Y2.15028
G01 X-65.09687 Y2.37446
G01 X-65.20563 Y2.58302
G01 X-65.25796 Y2.74974
G01 X-65.28938 Y3.01680
G01 X-65.28493 Y3.40895
G01 X-65.22545 Y3.69503
G01 X-65.15654 Y3.85561
G01 X-65.06896 Y3.99218
G01 X-64.71780 Y5.57257
G01 X-64.71780 Y10.70180
G01 X-66.17353 Y10.70223
G01 X-66.37106 Y10.72301
G01 X-66.59064 Y10.79087
G01 X-66.72125 Y10.85745
G01 X-66.88183 Y10.97411
G01 X-66.98549 Y11.07777
G01 X-67.10215 Y11.23835
G01 X-67.20840 Y11.47698
G01 X-67.24970 Y11.67124
G01 X-67.25737 Y11.81754
G01 X-67.23659 Y12.01510
G01 X-67.19870 Y12.15653
G01 X-67.11790 Y12.33801
G01 X-67.05653 Y12.43547
G01 X-66.96438 Y12.54929
G01 X-66.81681 Y12.68216
G01 X-66.59054 Y12.81279
G01 X-66.37099 Y12.88063
G01 X-66.17353 Y12.90139
G01 X-64.71780 Y12.90179
G01 X-64.71780 Y24.50179
G01 X-64.70094 Y24.68734
G01 X-64.64396 Y24.89504
G01 X-64.54752 Y25.08770
G01 X-64.41541 Y25.25780
G01 X-64.25252 Y25.39892
G01 X-64.06533 Y25.50550
G01 X-63.86093 Y25.57352
G01 X-63.61780 Y25.60179
G01 X-50.91780 Y25.60179
G01 X-50.67462 Y25.57352
G01 X-50.47023 Y25.50550
G01 X-50.28303 Y25.39892
G01 X-50.16180 Y25.29946
G01 X-50.02068 Y25.13657
G01 X-49.89159 Y24.89504
G01 X-49.83459 Y24.68729
G01 X-49.81923 Y24.53121
G01 X-49.81781 Y18.48029
G01 X-49.76929 Y18.17966
G04 P0 ( dwell for no time -- G64 should not smooth over this point )
G00 Z5.00000 ( retract )

G00 X-49.76782 Y14.76181 ( rapid move to begin. )
G01 F60.00000
G01 Z-0.05000
G04 P0 ( dwell for no time -- G64 should not smooth over this point )
G01 F120.00000
G01 X-49.76782 Y14.76181
G01 X-49.77356 Y14.70329
G01 X-49.81778 Y14.59623
G01 X-49.82659 Y5.31555
G01 X-50.26281 Y3.32838
G01 X-50.27277 Y2.86567
G01 X-50.30795 Y2.69450
G01 X-50.39505 Y2.47601
G01 X-50.56385 Y2.23346
G01 X-50.69050 Y2.11307
G01 X-50.88679 Y1.98348
G01 X-51.16390 Y1.88086
G01 X-51.33662 Y1.85439
G01 X-51.57178 Y1.86018
G01 X-51.85786 Y1.93425
G01 X-52.06621 Y2.04332
G01 X-52.24838 Y2.19209
G01 X-52.39687 Y2.37446
G01 X-52.50563 Y2.58302
G01 X-52.57017 Y2.80923
G01 X-52.58938 Y3.01680
G01 X-52.58493 Y3.40895
G01 X-52.54363 Y3.63712
G01 X-52.45654 Y3.85561
G01 X-52.36896 Y3.99218
G01 X-52.01780 Y5.57257
G01 X-52.01780 Y14.59623
G01 X-52.06202 Y14.70329
G01 X-52.06779 Y14.76181
G01 X-52.06779 Y16.46178
G01 X-52.04493 Y16.57659
G01 X-51.97990 Y16.67392
G01 X-51.88257 Y16.73894
G01 X-51.76779 Y16.76178
G01 X-50.06782 Y16.76178
G01 X-49.95301 Y16.73894
G01 X-49.85568 Y16.67392
G01 X-49.79065 Y16.57659
G01 X-49.76782 Y16.46178
G01 X-49.76782 Y14.76181
G04 P0 ( dwell for no time -- G64 should not smooth over this point )
G00 Z5.00000 ( retract )

G00 X-35.64781 Y32.12179 ( rapid move to begin. )
G01 F60.00000
G01 Z-0.05000
G04 P0 ( dwell for no time -- G64 should not smooth over this point )
G01 F120.00000
G01 X-35.64781 Y32.12179
G01 X-35.68433 Y31.82121
G01 X-35.76020 Y31.59304
G01 X-35.87900 Y31.38400
G01 X-36.05573 Y31.17793
G01 X-36.27148 Y31.01308
G01 X-36.51677 Y30.89670
G01 X-36.84328 Y30.82728
G01 X-37.05232 Y30.82728
G01 X-37.31915 Y30.87732
G01 X-37.63612 Y31.02180
G01 X-47.68949 Y31.02180
G01 X-47.97610 Y30.88545
G01 X-48.27328 Y30.82728
G01 X-48.48232 Y30.82728
G01 X-48.74915 Y30.87732
G01 X-49.06612 Y31.02180
G01 X-68.00949 Y31.02180
G01 X-68.32643 Y30.87732
G01 X-68.59328 Y30.82728
G01 X-68.80232 Y30.82728
G01 X-69.12879 Y30.89670
G01 X-69.38612 Y31.02182
G01 X-75.04780 Y31.02180
G01 X-75.23330 Y31.03866
G01 X-75.49533 Y31.11814
G01 X-75.68252 Y31.22472
G01 X-75.80376 Y31.32418
G01 X-75.94488 Y31.48707
G01 X-76.05146 Y31.67427
G01 X-76.13094 Y31.93630
G01 X-76.14780 Y32.12179
G01 X-76.14780 Y39.41335
G01 X-76.19322 Y39.65333
G01 X-76.17838 Y39.94573
G01 X-76.11420 Y40.16910
G01 X-76.00635 Y40.37507
G01 X-75.90107 Y40.51106
G01 X-75.72875 Y40.66707
G01 X-75.47275 Y40.80915
G01 X-75.24928 Y40.87283
G01 X-75.07818 Y40.89026
G01 X-74.90142 Y40.88129
G01 X-74.71748 Y40.84182
G01 X-71.92609 Y40.84179
G01 X-71.60915 Y40.98629
G01 X-71.34232 Y41.03631
G01 X-71.07090 Y41.02975
G01 X-70.86643 Y40.98629
G01 X-70.61578 Y40.88187
G01 X-70.39234 Y40.72762
G01 X-70.20585 Y40.53034
G01 X-70.03892 Y40.24123
G01 X-69.96130 Y39.98109
G01 X-69.93781 Y39.74179
G01 X-69.97433 Y39.44121
G01 X-70.05020 Y39.21304
G01 X-70.16900 Y39.00400
G01 X-70.34573 Y38.79793
G01 X-70.56148 Y38.63308
G01 X-70.80677 Y38.51670
G01 X-71.07090 Y38.45386
G01 X-71.34232 Y38.44728
G01 X-71.66879 Y38.51670
G01 X-71.92612 Y38.64182
G01 X-73.94781 Y38.64180
G01 X-73.94781 Y33.22179
G01 X-69.38609 Y33.22179
G01 X-69.09948 Y33.35816
G01 X-68.80232 Y33.41631
G01 X-68.53090 Y33.40975
G01 X-68.32643 Y33.36629
G01 X-68.00946 Y33.22179
G01 X-49.06609 Y33.22179
G01 X-48.77948 Y33.35816
G01 X-48.48232 Y33.41631
G01 X-48.21090 Y33.40975
G01 X-48.00643 Y33.36629
G01 X-47.68946 Y33.22179
G01 X-37.63609 Y33.22179
G01 X-37.31915 Y33.36629
G01 X-37.11468 Y33.40975
G01 X-36.84328 Y33.41631
G01 X-36.51679 Y33.34691
G01 X-36.29779 Y33.24762
G01 X-36.05573 Y33.06568
G01 X-35.87900 Y32.85961
G01 X-35.76020 Y32.65057
G01 X-35.68433 Y32.42240
G01 X-35.64781 Y32.12179
G04 P0 ( dwell for no time -- G64 should not smooth over this point )
G00 Z5.00000 ( retract )

G00 X-30.71929 Y34.68963 ( rapid move to begin. )
G01 F60.00000
G01 Z-0.05000
G04 P0 ( dwell for no time -- G64 should not smooth over this point )
G01 F120.00000
G01 X-30.71929 Y34.68963
G01 X-30.74843 Y34.92029
G01 X-30.82333 Y35.14028
G01 X-30.97822 Y35.38877
G01 X-31.14276 Y35.55295
G01 X-31.33699 Y35.68069
G01 X-31.55297 Y35.76667
G01 X-31.76658 Y35.80703
G01 X-32.06928 Y35.79283
G01 X-32.18861 Y35.76182
G01 X-40.30213 Y35.76182
G01 X-40.92778 Y36.38747
G01 X-40.92781 Y39.74182
G01 X-40.95994 Y40.00082
G01 X-41.02288 Y40.18924
G01 X-41.12079 Y40.36206
G01 X-41.29174 Y40.55929
G01 X-41.50578 Y40.70870
G01 X-41.71820 Y40.79610
G01 X-41.88178 Y40.83087
G01 X-42.14276 Y40.83580
G01 X-42.39699 Y40.77674
G01 X-42.60413 Y40.67733
G01 X-42.76382 Y40.55927
G01 X-42.89793 Y40.41276
G01 X-43.03268 Y40.18924
G01 X-43.10865 Y39.93953
G01 X-43.12780 Y39.74179
G01 X-43.12780 Y35.93179
G01 X-43.09948 Y35.68867
G01 X-43.03146 Y35.48427
G01 X-42.95752 Y35.34594
G01 X-42.80560 Y35.15400
G01 X-41.53560 Y33.88400
G01 X-41.39252 Y33.76472
G01 X-41.20533 Y33.65814
G01 X-41.00093 Y33.59012
G01 X-40.75780 Y33.56180
G01 X-32.19810 Y33.56180
G01 X-32.01416 Y33.52233
G01 X-31.83740 Y33.51336
G01 X-31.60692 Y33.54300
G01 X-31.38701 Y33.61841
G01 X-31.18683 Y33.73655
G01 X-31.01452 Y33.89256
G01 X-30.90923 Y34.02855
G01 X-30.80138 Y34.23452
G01 X-30.73720 Y34.45788
G01 X-30.71929 Y34.68963
G04 P0 ( dwell for no time -- G64 should not smooth over this point )
G00 Z5.00000 ( retract )

G00 X-26.75781 Y39.74179 ( rapid move to begin. )
G01 F60.00000
G01 Z-0.05000
G04 P0 ( dwell for no time -- G64 should not smooth over this point )
G01 F120.00000
G01 X-26.75781 Y39.74179
G01 X-26.79433 Y39.44121
G01 X-26.87020 Y39.21304
G01 X-26.98900 Y39.00400
G01 X-27.16573 Y38.79793
G01 X-27.43578 Y38.60174
G01 X-27.62677 Y38.51670
G01 X-27.76288 Y38.48104
G01 X-29.81995 Y36.42400
G01 X-30.01190 Y36.27208
G01 X-30.15023 Y36.19814
G01 X-30.35462 Y36.13012
G01 X-30.59780 Y36.10180
G01 X-31.54692 Y36.10182
G01 X-31.66630 Y36.07078
G01 X-31.88302 Y36.05222
G01 X-32.01416 Y36.06233
G01 X-32.19810 Y36.10180
G01 X-36.25949 Y36.10180
G01 X-36.57643 Y35.95732
G01 X-36.84328 Y35.90728
G01 X-37.05232 Y35.90728
G01 X-37.37879 Y35.97670
G01 X-37.59779 Y36.07599
G01 X-37.79324 Y36.21600
G01 X-38.01658 Y36.46400
G01 X-38.13538 Y36.67304
G01 X-38.21125 Y36.90121
G01 X-38.24780 Y37.20179
G01 X-38.22428 Y37.44109
G01 X-38.13538 Y37.73057
G01 X-38.01658 Y37.93961
G01 X-37.83985 Y38.14568
G01 X-37.62410 Y38.31053
G01 X-37.34948 Y38.43816
G01 X-37.11468 Y38.48975
G01 X-36.84328 Y38.49631
G01 X-36.57643 Y38.44629
G01 X-36.25946 Y38.30182
G01 X-32.18858 Y38.30182
G01 X-32.06928 Y38.33283
G01 X-31.85256 Y38.35140
G01 X-31.72142 Y38.34129
G01 X-31.53750 Y38.30182
G01 X-31.05343 Y38.30182
G01 X-29.32430 Y40.03095
G01 X-29.23113 Y40.29856
G01 X-29.08973 Y40.53034
G01 X-28.94985 Y40.68568
G01 X-28.73410 Y40.85053
G01 X-28.42915 Y40.98629
G01 X-28.16232 Y41.03631
G01 X-27.89090 Y41.02975
G01 X-27.68643 Y40.98629
G01 X-27.40779 Y40.86762
G01 X-27.21234 Y40.72762
G01 X-27.02585 Y40.53034
G01 X-26.87020 Y40.27057
G01 X-26.79433 Y40.04240
G01 X-26.75781 Y39.74179
G04 P0 ( dwell for no time -- G64 should not smooth over this point )
G00 Z5.00000 ( retract )

G00 X-30.71929 Y44.84963 ( rapid move to begin. )
G01 F60.00000
G01 Z-0.05000
G04 P0 ( dwell for no time -- G64 should not smooth over this point )
G01 F120.00000
G01 X-30.71929 Y44.84963
G01 X-30.74843 Y45.08029
G01 X-30.82333 Y45.30028
G01 X-30.97822 Y45.54877
G01 X-31.09671 Y45.67343
G01 X-31.28391 Y45.81120
G01 X-31.55297 Y45.92667
G01 X-31.85256 Y45.97140
G01 X-32.06928 Y45.95283
G01 X-32.18863 Y45.92182
