( pcb2gcode 1.3.2 )
( Software-independent Gcode )

( This file uses only one drill bit. Forced by 'onedrill' option )

G94       (Millimeters per minute feed rate.)
G21       (Units == Millimeters.)
G91.1     (Incremental arc distance mode.)
G90       (Absolute coordinates.)
G00 S255     (RPM spindle speed.)

G00 Z10.00000 (Retract)
T1
M5      (Spindle stop.)
G04 P1.00000
(MSG, Change tool bit to drill size 0.8 mm)
M6      (Tool change.)
M0      (Temporary machine stop.)
M3      (Spindle on clockwise.)
G0 Z5.00000
G04 P1.00000

G81 R5.00000 Z-2.00000 F120.00000 X-92.06580 Y3.16579
X-85.20780 Y7.99179
X-85.20780 Y14.34179
X-82.66780 Y14.34179
X-80.12780 Y14.34179
X-68.69780 Y24.50179
X-68.69780 Y32.12179
X-71.23780 Y39.74179
X-75.04780 Y39.74179
X-77.58780 Y39.74179
X-80.12780 Y39.74179
X-82.66780 Y39.74179
X-77.58780 Y47.36179
X-80.12780 Y47.36179
X-82.66780 Y47.36179
X-85.20780 Y47.36179
X-81.90580 Y51.42579
X-79.36580 Y51.42579
X-76.82580 Y51.42579
X-74.28580 Y51.42579
X-71.23780 Y47.36179
X-71.74580 Y51.42579
X-69.20580 Y51.42579
X-64.12580 Y51.42579
X-61.58580 Y51.42579
X-59.04580 Y51.42579
X-56.50580 Y51.42579
X-53.96580 Y51.42579
X-51.42580 Y51.42579
X-48.88580 Y51.42579
X-46.34580 Y51.42579
X-42.28180 Y51.42579
X-39.74180 Y51.42579
X-37.20180 Y51.42579
X-34.66180 Y51.42579
X-32.12180 Y51.42579
X-29.58180 Y51.42579
X-27.04180 Y51.42579
X-24.50180 Y51.42579
X-21.96180 Y51.42579
X-19.42180 Y51.42579
X-16.62780 Y43.55179
X-7.73780 Y51.17179
X-7.73780 Y46.09179
X-11.54780 Y43.55179
X-11.54780 Y41.01179
X-6.46780 Y41.01179
X-6.46780 Y38.47179
X-6.46780 Y35.93179
X-6.46780 Y33.39179
X-6.46780 Y30.85179
X-6.46780 Y28.31179
X-11.54780 Y28.31179
X-14.08780 Y28.31179
X-11.54780 Y23.23179
X-14.08780 Y23.23179
X-21.70780 Y28.31179
X-21.70780 Y23.23179
X-24.24780 Y16.88179
X-29.32780 Y16.88179
X-28.56580 Y3.16579
X-31.10580 Y3.16579
X-33.64580 Y3.16579
X-36.18580 Y3.16579
X-38.72580 Y3.16579
X-41.26580 Y3.16579
X-43.80580 Y3.16579
X-46.34580 Y3.16579
X-43.29780 Y6.72179
X-45.83780 Y9.26179
X-48.37780 Y11.80179
X-50.91780 Y15.61179
X-50.91780 Y18.15179
X-53.45780 Y21.96179
X-48.37780 Y24.50179
X-53.45780 Y29.58179
X-48.37780 Y32.12179
X-42.02780 Y39.74179
X-39.48780 Y39.74179
X-36.94780 Y37.20179
X-36.94780 Y32.12179
X-31.86780 Y32.12179
X-31.86780 Y34.66179
X-31.86780 Y37.20179
X-28.05780 Y39.74179
X-21.70780 Y35.93179
X-14.08780 Y35.93179
X-11.54780 Y35.93179
X-14.08780 Y41.01179
X-21.70780 Y41.01179
X-28.05780 Y44.82179
X-31.86780 Y42.28179
X-31.86780 Y44.82179
X-31.86780 Y47.36179
X-39.48780 Y47.36179
X-42.02780 Y47.36179
X-66.15780 Y19.42179
X-61.07780 Y15.61179
X-61.07780 Y18.15179
X-58.53780 Y15.61179
X-58.53780 Y18.15179
X-55.99780 Y15.61179
X-55.99780 Y18.15179
X-53.45780 Y18.15179
X-53.45780 Y15.61179
X-55.99780 Y11.80179
X-53.45780 Y9.26179
X-50.91780 Y6.72179
X-51.42580 Y3.16579
X-53.96580 Y3.16579
X-56.50580 Y3.16579
X-59.04580 Y3.16579
X-58.53780 Y6.72179
X-61.07780 Y9.26179
X-61.58580 Y3.16579
X-64.12580 Y3.16579
X-66.66580 Y3.16579
X-69.20580 Y3.16579
X-66.15780 Y6.72179
X-68.69780 Y9.26179
X-66.15780 Y11.80179
X-72.50780 Y14.34179
X-75.04780 Y14.34179
X-77.58780 Y14.34179
X-82.66780 Y7.99179
X-80.12780 Y7.99179
X-77.58780 Y7.99179
X-75.04780 Y7.99179
X-72.50780 Y7.99179
X-74.28580 Y3.16579
X-76.82580 Y3.16579
X-79.36580 Y3.16579
X-81.90580 Y3.16579
X-84.44580 Y3.16579
X-86.98580 Y3.16579
X-89.52580 Y3.16579
X-94.60580 Y8.24579
X-97.14580 Y8.24579
X-97.14580 Y10.78579
X-94.60580 Y10.78579
X-97.14580 Y13.32579
X-97.14580 Y15.86579
X-94.60580 Y13.32579
X-94.60580 Y15.86579
X-97.14580 Y18.40579
X-97.14580 Y20.94579
X-94.60580 Y18.40579
X-94.60580 Y20.94579
X-97.14580 Y23.48579
X-97.14580 Y26.02579
X-94.60580 Y23.48579
X-94.60580 Y26.02579
X-97.14580 Y28.56579
X-94.60580 Y28.56579
X-97.14580 Y31.10579
X-94.60580 Y31.10579
X-97.14580 Y33.64579
X-94.60580 Y33.64579
X-97.14580 Y36.18579
X-97.14580 Y38.72579
X-94.60580 Y36.18579
X-94.60580 Y38.72579
X-97.14580 Y41.26579
X-97.14580 Y43.80579
X-94.60580 Y41.26579
X-94.60580 Y43.80579
X-97.14580 Y46.34579
X-97.14580 Y48.88579
X-97.14580 Y51.42579
X-94.60580 Y51.42579
X-94.60580 Y48.88579
X-94.60580 Y46.34579
X-86.98580 Y51.42579
X-84.44580 Y51.42579

G00 Z10.000 ( All done -- retract )

M5      (Spindle off.)
G04 P1.000000
M9      (Coolant off.)
M2      (Program end.)

