( pcb2gcode 1.3.2 )
( Software-independent Gcode )

G94 ( Millimeters per minute feed rate. )
G21 ( Units == Millimeters. )

G90 ( Absolute coordinates. )
G00 S255 ( RPM spindle speed. )
G01 F60.00000 ( Feedrate. )

G01 F60.00000 ( Feedrate. )
M3 ( Spindle on clockwise. )
G04 P1.00000
G04 P0 ( dwell for no time -- G64 should not smooth over this point )
G00 Z5.00000 ( retract )

G00 X-0.12580 Y0.62579 ( rapid move to begin. )
G01 Z-2.00000 F30.00000 ( plunge. )
G04 P0 ( dwell for no time -- G64 should not smooth over this point )
G01 F60.00000
G01 X-0.12580 Y0.62579
G01 X-0.12580 Y26.54579
G01 Z-0.60000
G01 X-0.12580 Y28.04579
G01 Z-2.00000 F30.00000
G01 F60.00000
G01 X-0.12580 Y53.96579
G01 X-0.16385 Y54.15716
G01 X-0.21006 Y54.24359
G01 X-0.27224 Y54.31936
G01 X-0.43444 Y54.42774
G01 X-0.62580 Y54.46579
G01 X-48.13580 Y54.46579
G01 Z-0.60000
G01 X-49.63580 Y54.46579
G01 Z-2.00000 F30.00000
G01 F60.00000
G01 X-97.14580 Y54.46579
G01 X-97.33714 Y54.42774
G01 X-97.49935 Y54.31936
G01 X-100.03935 Y51.77936
G01 X-100.14773 Y51.61716
G01 X-100.18580 Y51.42579
G01 X-100.18578 Y41.47291
G01 X-102.57935 Y39.07936
G01 X-102.68773 Y38.91716
G01 X-102.72580 Y38.72579
G01 X-102.72580 Y22.33079
G01 Z-0.60000
G01 X-102.72580 Y20.83079
G01 Z-2.00000 F30.00000
G01 F60.00000
G01 X-102.72580 Y4.43579
G01 X-102.68773 Y4.24446
G01 X-102.57935 Y4.08225
G01 X-100.18580 Y1.68868
G01 X-100.17618 Y0.52826
G01 X-100.10152 Y0.34802
G01 X-100.03935 Y0.27225
G01 X-99.87714 Y0.16387
G01 X-99.68580 Y0.12580
G01 X-50.90580 Y0.12580
G01 Z-0.60000
G01 X-49.40580 Y0.12580
G01 Z-2.00000 F30.00000
G01 F60.00000
G01 X-0.62580 Y0.12580
G01 X-0.43444 Y0.16387
G01 X-0.27224 Y0.27225
G01 X-0.16385 Y0.43446
G01 X-0.12580 Y0.62579

G04 P0 ( dwell for no time -- G64 should not smooth over this point )
G00 Z10.000 ( retract )

M5 ( Spindle off. )
G04 P1.000000
M9 ( Coolant off. )
M2 ( Program end. )

